; Generated by AutoJotter. 
G20 (Units are in Inches)
G61 (Go to exact corners)


F50.00000
G0 X7.085097 Y5.871356
M3 S850
G1 X7.085097 Y5.871356
G1 X7.082797 Y5.872755
G1 X7.080497 Y5.874155
G1 X7.078197 Y5.875554
G1 X7.075897 Y5.876954
G1 X7.073597 Y5.878353
G1 X7.071297 Y5.879752
G1 X7.068997 Y5.881152
G1 X7.066697 Y5.882551
G1 X7.064397 Y5.883950
G1 X7.062098 Y5.885350
G1 X7.059798 Y5.886749
G1 X7.057498 Y5.888149
G1 X7.055198 Y5.889548
G1 X7.052898 Y5.890947
G1 X7.050598 Y5.892347
G1 X7.048298 Y5.893746
G1 X7.045998 Y5.895146
G1 X7.043698 Y5.896545
G1 X7.041398 Y5.897944
G1 X7.039098 Y5.899344
G1 X7.036798 Y5.900743
G1 X7.034498 Y5.902142
G1 X7.032198 Y5.903542
G1 X7.029899 Y5.904941
G1 X7.027599 Y5.906341
G1 X7.025299 Y5.907740
G1 X7.022999 Y5.909139
G1 X7.020699 Y5.910539
G1 X7.018399 Y5.911938
G1 X7.016099 Y5.913338
G1 X7.013799 Y5.914737
G1 X7.011499 Y5.916136
G1 X7.009199 Y5.917536
G1 X7.006899 Y5.918935
G1 X7.004599 Y5.920335
G1 X7.002299 Y5.921734
G1 X6.999999 Y5.923133
G1 X6.997699 Y5.924533
G1 X6.995400 Y5.925932
G1 X6.993100 Y5.927331
G1 X6.990800 Y5.928731
G1 X6.988500 Y5.930130
G1 X6.986200 Y5.931530
G1 X6.983900 Y5.932929
G1 X6.981600 Y5.934329
G1 X6.979300 Y5.935728
G1 X6.977000 Y5.937127
G1 X6.974700 Y5.938527
G1 X6.972400 Y5.939926
G1 X6.970100 Y5.941325
G1 X6.967800 Y5.942725
G1 X6.965501 Y5.944124
G1 X6.963201 Y5.945524
G1 X6.960901 Y5.946923
G1 X6.958601 Y5.948322
G1 X6.956301 Y5.949722
G1 X6.954001 Y5.951121
G1 X6.951701 Y5.952520
G1 X6.949401 Y5.953920
G1 X6.947101 Y5.955319
G1 X6.944801 Y5.956719
G1 X6.942501 Y5.958118
G1 X6.940201 Y5.959518
G1 X6.937902 Y5.960917
G1 X6.935602 Y5.962316
G1 X6.933302 Y5.963716
M3 S400

G0 X7.085097 Y5.810888
M3 S850
G1 X7.085097 Y5.810888
G1 X7.082797 Y5.812312
G1 X7.080497 Y5.813736
G1 X7.078197 Y5.815160
G1 X7.075897 Y5.816583
G1 X7.073597 Y5.818007
G1 X7.071297 Y5.819431
G1 X7.068997 Y5.820854
G1 X7.066697 Y5.822278
G1 X7.064397 Y5.823702
G1 X7.062098 Y5.825125
G1 X7.059798 Y5.826549
G1 X7.057498 Y5.827973
G1 X7.055198 Y5.829396
G1 X7.052898 Y5.830820
G1 X7.050598 Y5.832244
G1 X7.048298 Y5.833667
G1 X7.045998 Y5.835091
G1 X7.043698 Y5.836515
G1 X7.041398 Y5.837938
G1 X7.039098 Y5.839362
G1 X7.036798 Y5.840786
G1 X7.034498 Y5.842210
G1 X7.032198 Y5.843633
G1 X7.029899 Y5.845057
G1 X7.027599 Y5.846481
G1 X7.025299 Y5.847904
G1 X7.022999 Y5.849328
G1 X7.020699 Y5.850752
G1 X7.018399 Y5.852175
G1 X7.016099 Y5.853599
G1 X7.013799 Y5.855023
G1 X7.011499 Y5.856446
G1 X7.009199 Y5.857870
G1 X7.006899 Y5.859294
G1 X7.004599 Y5.860717
G1 X7.002299 Y5.862141
G1 X6.999999 Y5.863565
G1 X6.997699 Y5.864988
G1 X6.995400 Y5.866412
G1 X6.993100 Y5.867836
G1 X6.990800 Y5.869259
G1 X6.988500 Y5.870683
G1 X6.986200 Y5.872107
G1 X6.983900 Y5.873531
G1 X6.981600 Y5.874954
G1 X6.979300 Y5.876378
G1 X6.977000 Y5.877802
G1 X6.974700 Y5.879225
G1 X6.972400 Y5.880649
G1 X6.970100 Y5.882073
G1 X6.967800 Y5.883496
G1 X6.965501 Y5.884920
G1 X6.963201 Y5.886344
G1 X6.960901 Y5.887767
G1 X6.958601 Y5.889191
G1 X6.956301 Y5.890615
G1 X6.954001 Y5.892039
G1 X6.951701 Y5.893462
G1 X6.949401 Y5.894886
G1 X6.947101 Y5.896309
G1 X6.944801 Y5.897733
G1 X6.942501 Y5.899157
G1 X6.940201 Y5.900581
G1 X6.937902 Y5.902004
G1 X6.935602 Y5.903428
G1 X6.933302 Y5.904852
M3 S400

G0 X7.043525 Y5.934334
M3 S850
G1 X7.043525 Y5.934334
G1 X7.043559 Y5.932294
G1 X7.043592 Y5.930255
G1 X7.043626 Y5.928215
G1 X7.043659 Y5.926175
G1 X7.043693 Y5.924136
G1 X7.043726 Y5.922096
G1 X7.043760 Y5.920056
G1 X7.043793 Y5.918016
G1 X7.043826 Y5.915977
G1 X7.043860 Y5.913937
G1 X7.043894 Y5.911897
G1 X7.043927 Y5.909858
G1 X7.043960 Y5.907818
G1 X7.043994 Y5.905778
G1 X7.044027 Y5.903739
G1 X7.044061 Y5.901699
G1 X7.044094 Y5.899659
G1 X7.044128 Y5.897620
G1 X7.044161 Y5.895580
G1 X7.044195 Y5.893540
G1 X7.044228 Y5.891501
G1 X7.044262 Y5.889461
G1 X7.044295 Y5.887421
G1 X7.044329 Y5.885382
G1 X7.044362 Y5.883342
G1 X7.044395 Y5.881302
G1 X7.044429 Y5.879263
G1 X7.044462 Y5.877223
G1 X7.044496 Y5.875183
G1 X7.044529 Y5.873144
G1 X7.044563 Y5.871104
G1 X7.044596 Y5.869064
G1 X7.044630 Y5.867025
G1 X7.044663 Y5.864985
G1 X7.044697 Y5.862945
G1 X7.044730 Y5.860906
G1 X7.044764 Y5.858866
G1 X7.044797 Y5.856826
G1 X7.044831 Y5.854787
G1 X7.044864 Y5.852747
G1 X7.044898 Y5.850707
G1 X7.044931 Y5.848668
G1 X7.044964 Y5.846628
G1 X7.044998 Y5.844588
G1 X7.045031 Y5.842549
G1 X7.045065 Y5.840509
G1 X7.045098 Y5.838469
G1 X7.045132 Y5.836430
G1 X7.045165 Y5.834390
G1 X7.045199 Y5.832350
G1 X7.045232 Y5.830311
G1 X7.045266 Y5.828271
G1 X7.045299 Y5.826231
G1 X7.045333 Y5.824192
G1 X7.045366 Y5.822152
G1 X7.045400 Y5.820112
G1 X7.045433 Y5.818073
G1 X7.045466 Y5.816033
G1 X7.045500 Y5.813993
G1 X7.045534 Y5.811954
G1 X7.045567 Y5.809914
G1 X7.045600 Y5.807874
G1 X7.045634 Y5.805835
G1 X7.045667 Y5.803795
G1 X7.045701 Y5.801755
G1 X7.045734 Y5.799716
M3 S400

G0 X6.980898 Y5.823581
M3 S850
G1 X6.980898 Y5.823581
G1 X6.980833 Y5.825678
G1 X6.980768 Y5.827775
G1 X6.980704 Y5.829872
G1 X6.980639 Y5.831969
G1 X6.980574 Y5.834066
G1 X6.980509 Y5.836163
G1 X6.980445 Y5.838260
G1 X6.980380 Y5.840357
G1 X6.980315 Y5.842454
G1 X6.980250 Y5.844551
G1 X6.980185 Y5.846648
G1 X6.980121 Y5.848745
G1 X6.980056 Y5.850842
G1 X6.979991 Y5.852939
G1 X6.979926 Y5.855036
G1 X6.979862 Y5.857133
G1 X6.979797 Y5.859230
G1 X6.979732 Y5.861327
G1 X6.979667 Y5.863424
G1 X6.979602 Y5.865521
G1 X6.979537 Y5.867618
G1 X6.979473 Y5.869715
G1 X6.979408 Y5.871812
G1 X6.979343 Y5.873909
G1 X6.979279 Y5.876006
G1 X6.979214 Y5.878103
G1 X6.979149 Y5.880200
G1 X6.979084 Y5.882297
G1 X6.979019 Y5.884394
G1 X6.978954 Y5.886491
G1 X6.978890 Y5.888588
G1 X6.978825 Y5.890685
G1 X6.978760 Y5.892782
G1 X6.978696 Y5.894879
G1 X6.978631 Y5.896976
G1 X6.978566 Y5.899073
G1 X6.978501 Y5.901170
G1 X6.978436 Y5.903266
G1 X6.978371 Y5.905364
G1 X6.978307 Y5.907460
G1 X6.978242 Y5.909557
G1 X6.978177 Y5.911654
G1 X6.978112 Y5.913751
G1 X6.978048 Y5.915848
G1 X6.977983 Y5.917945
G1 X6.977918 Y5.920042
G1 X6.977853 Y5.922139
G1 X6.977788 Y5.924236
G1 X6.977724 Y5.926333
G1 X6.977659 Y5.928430
G1 X6.977594 Y5.930527
G1 X6.977529 Y5.932624
G1 X6.977464 Y5.934721
G1 X6.977400 Y5.936818
G1 X6.977335 Y5.938915
G1 X6.977270 Y5.941012
G1 X6.977205 Y5.943109
G1 X6.977141 Y5.945206
G1 X6.977076 Y5.947303
G1 X6.977011 Y5.949400
G1 X6.976946 Y5.951497
G1 X6.976881 Y5.953594
G1 X6.976816 Y5.955691
G1 X6.976752 Y5.957788
G1 X6.976687 Y5.959885
G1 X6.976622 Y5.961982
M3 S400

G0 X7.085097 Y5.721356
M3 S850
G1 X7.085097 Y5.721356
G1 X7.082797 Y5.722755
G1 X7.080497 Y5.724155
G1 X7.078197 Y5.725554
G1 X7.075897 Y5.726954
G1 X7.073597 Y5.728353
G1 X7.071297 Y5.729752
G1 X7.068997 Y5.731152
G1 X7.066697 Y5.732551
G1 X7.064397 Y5.733950
G1 X7.062098 Y5.735350
G1 X7.059798 Y5.736749
G1 X7.057498 Y5.738149
G1 X7.055198 Y5.739548
G1 X7.052898 Y5.740947
G1 X7.050598 Y5.742347
G1 X7.048298 Y5.743746
G1 X7.045998 Y5.745146
G1 X7.043698 Y5.746545
G1 X7.041398 Y5.747944
G1 X7.039098 Y5.749344
G1 X7.036798 Y5.750743
G1 X7.034498 Y5.752142
G1 X7.032198 Y5.753542
G1 X7.029899 Y5.754941
G1 X7.027599 Y5.756341
G1 X7.025299 Y5.757740
G1 X7.022999 Y5.759139
G1 X7.020699 Y5.760539
G1 X7.018399 Y5.761938
G1 X7.016099 Y5.763338
G1 X7.013799 Y5.764737
G1 X7.011499 Y5.766136
G1 X7.009199 Y5.767536
G1 X7.006899 Y5.768935
G1 X7.004599 Y5.770335
G1 X7.002299 Y5.771734
G1 X6.999999 Y5.773133
G1 X6.997699 Y5.774533
G1 X6.995400 Y5.775932
G1 X6.993100 Y5.777331
G1 X6.990800 Y5.778731
G1 X6.988500 Y5.780130
G1 X6.986200 Y5.781530
G1 X6.983900 Y5.782929
G1 X6.981600 Y5.784329
G1 X6.979300 Y5.785728
G1 X6.977000 Y5.787127
G1 X6.974700 Y5.788527
G1 X6.972400 Y5.789926
G1 X6.970100 Y5.791325
G1 X6.967800 Y5.792725
G1 X6.965501 Y5.794124
G1 X6.963201 Y5.795524
G1 X6.960901 Y5.796923
G1 X6.958601 Y5.798322
G1 X6.956301 Y5.799722
G1 X6.954001 Y5.801121
G1 X6.951701 Y5.802520
G1 X6.949401 Y5.803920
G1 X6.947101 Y5.805319
G1 X6.944801 Y5.806719
G1 X6.942501 Y5.808118
G1 X6.940201 Y5.809518
G1 X6.937902 Y5.810917
G1 X6.935602 Y5.812316
G1 X6.933302 Y5.813716
M3 S400

G0 X7.085097 Y5.660888
M3 S850
G1 X7.085097 Y5.660888
G1 X7.082797 Y5.662312
G1 X7.080497 Y5.663736
G1 X7.078197 Y5.665160
G1 X7.075897 Y5.666583
G1 X7.073597 Y5.668007
G1 X7.071297 Y5.669431
G1 X7.068997 Y5.670854
G1 X7.066697 Y5.672278
G1 X7.064397 Y5.673702
G1 X7.062098 Y5.675125
G1 X7.059798 Y5.676549
G1 X7.057498 Y5.677973
G1 X7.055198 Y5.679396
G1 X7.052898 Y5.680820
G1 X7.050598 Y5.682244
G1 X7.048298 Y5.683667
G1 X7.045998 Y5.685091
G1 X7.043698 Y5.686515
G1 X7.041398 Y5.687938
G1 X7.039098 Y5.689362
G1 X7.036798 Y5.690786
G1 X7.034498 Y5.692210
G1 X7.032198 Y5.693633
G1 X7.029899 Y5.695057
G1 X7.027599 Y5.696481
G1 X7.025299 Y5.697904
G1 X7.022999 Y5.699328
G1 X7.020699 Y5.700752
G1 X7.018399 Y5.702175
G1 X7.016099 Y5.703599
G1 X7.013799 Y5.705023
G1 X7.011499 Y5.706446
G1 X7.009199 Y5.707870
G1 X7.006899 Y5.709294
G1 X7.004599 Y5.710717
G1 X7.002299 Y5.712141
G1 X6.999999 Y5.713565
G1 X6.997699 Y5.714988
G1 X6.995400 Y5.716412
G1 X6.993100 Y5.717836
G1 X6.990800 Y5.719259
G1 X6.988500 Y5.720683
G1 X6.986200 Y5.722107
G1 X6.983900 Y5.723531
G1 X6.981600 Y5.724954
G1 X6.979300 Y5.726378
G1 X6.977000 Y5.727802
G1 X6.974700 Y5.729225
G1 X6.972400 Y5.730649
G1 X6.970100 Y5.732073
G1 X6.967800 Y5.733496
G1 X6.965501 Y5.734920
G1 X6.963201 Y5.736344
G1 X6.960901 Y5.737767
G1 X6.958601 Y5.739191
G1 X6.956301 Y5.740615
G1 X6.954001 Y5.742039
G1 X6.951701 Y5.743462
G1 X6.949401 Y5.744886
G1 X6.947101 Y5.746309
G1 X6.944801 Y5.747733
G1 X6.942501 Y5.749157
G1 X6.940201 Y5.750581
G1 X6.937902 Y5.752004
G1 X6.935602 Y5.753428
G1 X6.933302 Y5.754852
M3 S400

G0 X7.043525 Y5.784334
M3 S850
G1 X7.043525 Y5.784334
G1 X7.043559 Y5.782294
G1 X7.043592 Y5.780255
G1 X7.043626 Y5.778215
G1 X7.043659 Y5.776175
G1 X7.043693 Y5.774136
G1 X7.043726 Y5.772096
G1 X7.043760 Y5.770056
G1 X7.043793 Y5.768016
G1 X7.043826 Y5.765977
G1 X7.043860 Y5.763937
G1 X7.043894 Y5.761897
G1 X7.043927 Y5.759858
G1 X7.043960 Y5.757818
G1 X7.043994 Y5.755778
G1 X7.044027 Y5.753739
G1 X7.044061 Y5.751699
G1 X7.044094 Y5.749659
G1 X7.044128 Y5.747620
G1 X7.044161 Y5.745580
G1 X7.044195 Y5.743540
G1 X7.044228 Y5.741501
G1 X7.044262 Y5.739461
G1 X7.044295 Y5.737421
G1 X7.044329 Y5.735382
G1 X7.044362 Y5.733342
G1 X7.044395 Y5.731302
G1 X7.044429 Y5.729263
G1 X7.044462 Y5.727223
G1 X7.044496 Y5.725183
G1 X7.044529 Y5.723144
G1 X7.044563 Y5.721104
G1 X7.044596 Y5.719064
G1 X7.044630 Y5.717025
G1 X7.044663 Y5.714985
G1 X7.044697 Y5.712945
G1 X7.044730 Y5.710906
G1 X7.044764 Y5.708866
G1 X7.044797 Y5.706826
G1 X7.044831 Y5.704787
G1 X7.044864 Y5.702747
G1 X7.044898 Y5.700707
G1 X7.044931 Y5.698668
G1 X7.044964 Y5.696628
G1 X7.044998 Y5.694588
G1 X7.045031 Y5.692549
G1 X7.045065 Y5.690509
G1 X7.045098 Y5.688469
G1 X7.045132 Y5.686430
G1 X7.045165 Y5.684390
G1 X7.045199 Y5.682350
G1 X7.045232 Y5.680311
G1 X7.045266 Y5.678271
G1 X7.045299 Y5.676231
G1 X7.045333 Y5.674192
G1 X7.045366 Y5.672152
G1 X7.045400 Y5.670112
G1 X7.045433 Y5.668073
G1 X7.045466 Y5.666033
G1 X7.045500 Y5.663993
G1 X7.045534 Y5.661954
G1 X7.045567 Y5.659914
G1 X7.045600 Y5.657874
G1 X7.045634 Y5.655835
G1 X7.045667 Y5.653795
G1 X7.045701 Y5.651755
G1 X7.045734 Y5.649716
M3 S400

G0 X6.980898 Y5.673581
M3 S850
G1 X6.980898 Y5.673581
G1 X6.980833 Y5.675678
G1 X6.980768 Y5.677775
G1 X6.980704 Y5.679872
G1 X6.980639 Y5.681969
G1 X6.980574 Y5.684066
G1 X6.980509 Y5.686163
G1 X6.980445 Y5.688260
G1 X6.980380 Y5.690357
G1 X6.980315 Y5.692454
G1 X6.980250 Y5.694551
G1 X6.980185 Y5.696648
G1 X6.980121 Y5.698745
G1 X6.980056 Y5.700842
G1 X6.979991 Y5.702939
G1 X6.979926 Y5.705036
G1 X6.979862 Y5.707133
G1 X6.979797 Y5.709230
G1 X6.979732 Y5.711327
G1 X6.979667 Y5.713424
G1 X6.979602 Y5.715521
G1 X6.979537 Y5.717618
G1 X6.979473 Y5.719715
G1 X6.979408 Y5.721812
G1 X6.979343 Y5.723909
G1 X6.979279 Y5.726006
G1 X6.979214 Y5.728103
G1 X6.979149 Y5.730200
G1 X6.979084 Y5.732297
G1 X6.979019 Y5.734394
G1 X6.978954 Y5.736491
G1 X6.978890 Y5.738588
G1 X6.978825 Y5.740685
G1 X6.978760 Y5.742782
G1 X6.978696 Y5.744879
G1 X6.978631 Y5.746976
G1 X6.978566 Y5.749073
G1 X6.978501 Y5.751170
G1 X6.978436 Y5.753266
G1 X6.978371 Y5.755364
G1 X6.978307 Y5.757460
G1 X6.978242 Y5.759557
G1 X6.978177 Y5.761654
G1 X6.978112 Y5.763751
G1 X6.978048 Y5.765848
G1 X6.977983 Y5.767945
G1 X6.977918 Y5.770042
G1 X6.977853 Y5.772139
G1 X6.977788 Y5.774236
G1 X6.977724 Y5.776333
G1 X6.977659 Y5.778430
G1 X6.977594 Y5.780527
G1 X6.977529 Y5.782624
G1 X6.977464 Y5.784721
G1 X6.977400 Y5.786818
G1 X6.977335 Y5.788915
G1 X6.977270 Y5.791012
G1 X6.977205 Y5.793109
G1 X6.977141 Y5.795206
G1 X6.977076 Y5.797303
G1 X6.977011 Y5.799400
G1 X6.976946 Y5.801497
G1 X6.976881 Y5.803594
G1 X6.976816 Y5.805691
G1 X6.976752 Y5.807788
G1 X6.976687 Y5.809885
G1 X6.976622 Y5.811982
M3 S400

G0 X7.085097 Y5.571356
M3 S850
G1 X7.085097 Y5.571356
G1 X7.082797 Y5.572755
G1 X7.080497 Y5.574155
G1 X7.078197 Y5.575554
G1 X7.075897 Y5.576954
G1 X7.073597 Y5.578353
G1 X7.071297 Y5.579752
G1 X7.068997 Y5.581152
G1 X7.066697 Y5.582551
G1 X7.064397 Y5.583950
G1 X7.062098 Y5.585350
G1 X7.059798 Y5.586749
G1 X7.057498 Y5.588149
G1 X7.055198 Y5.589548
G1 X7.052898 Y5.590947
G1 X7.050598 Y5.592347
G1 X7.048298 Y5.593746
G1 X7.045998 Y5.595146
G1 X7.043698 Y5.596545
G1 X7.041398 Y5.597944
G1 X7.039098 Y5.599344
G1 X7.036798 Y5.600743
G1 X7.034498 Y5.602142
G1 X7.032198 Y5.603542
G1 X7.029899 Y5.604941
G1 X7.027599 Y5.606341
G1 X7.025299 Y5.607740
G1 X7.022999 Y5.609139
G1 X7.020699 Y5.610539
G1 X7.018399 Y5.611938
G1 X7.016099 Y5.613338
G1 X7.013799 Y5.614737
G1 X7.011499 Y5.616136
G1 X7.009199 Y5.617536
G1 X7.006899 Y5.618935
G1 X7.004599 Y5.620335
G1 X7.002299 Y5.621734
G1 X6.999999 Y5.623133
G1 X6.997699 Y5.624533
G1 X6.995400 Y5.625932
G1 X6.993100 Y5.627331
G1 X6.990800 Y5.628731
G1 X6.988500 Y5.630130
G1 X6.986200 Y5.631530
G1 X6.983900 Y5.632929
G1 X6.981600 Y5.634329
G1 X6.979300 Y5.635728
G1 X6.977000 Y5.637127
G1 X6.974700 Y5.638527
G1 X6.972400 Y5.639926
G1 X6.970100 Y5.641325
G1 X6.967800 Y5.642725
G1 X6.965501 Y5.644124
G1 X6.963201 Y5.645524
G1 X6.960901 Y5.646923
G1 X6.958601 Y5.648322
G1 X6.956301 Y5.649722
G1 X6.954001 Y5.651121
G1 X6.951701 Y5.652520
G1 X6.949401 Y5.653920
G1 X6.947101 Y5.655319
G1 X6.944801 Y5.656719
G1 X6.942501 Y5.658118
G1 X6.940201 Y5.659518
G1 X6.937902 Y5.660917
G1 X6.935602 Y5.662316
G1 X6.933302 Y5.663716
M3 S400

G0 X7.085097 Y5.510888
M3 S850
G1 X7.085097 Y5.510888
G1 X7.082797 Y5.512312
G1 X7.080497 Y5.513736
G1 X7.078197 Y5.515160
G1 X7.075897 Y5.516583
G1 X7.073597 Y5.518007
G1 X7.071297 Y5.519431
G1 X7.068997 Y5.520854
G1 X7.066697 Y5.522278
G1 X7.064397 Y5.523702
G1 X7.062098 Y5.525125
G1 X7.059798 Y5.526549
G1 X7.057498 Y5.527973
G1 X7.055198 Y5.529396
G1 X7.052898 Y5.530820
G1 X7.050598 Y5.532244
G1 X7.048298 Y5.533667
G1 X7.045998 Y5.535091
G1 X7.043698 Y5.536515
G1 X7.041398 Y5.537938
G1 X7.039098 Y5.539362
G1 X7.036798 Y5.540786
G1 X7.034498 Y5.542210
G1 X7.032198 Y5.543633
G1 X7.029899 Y5.545057
G1 X7.027599 Y5.546481
G1 X7.025299 Y5.547904
G1 X7.022999 Y5.549328
G1 X7.020699 Y5.550752
G1 X7.018399 Y5.552175
G1 X7.016099 Y5.553599
G1 X7.013799 Y5.555023
G1 X7.011499 Y5.556446
G1 X7.009199 Y5.557870
G1 X7.006899 Y5.559294
G1 X7.004599 Y5.560717
G1 X7.002299 Y5.562141
G1 X6.999999 Y5.563565
G1 X6.997699 Y5.564988
G1 X6.995400 Y5.566412
G1 X6.993100 Y5.567836
G1 X6.990800 Y5.569259
G1 X6.988500 Y5.570683
G1 X6.986200 Y5.572107
G1 X6.983900 Y5.573531
G1 X6.981600 Y5.574954
G1 X6.979300 Y5.576378
G1 X6.977000 Y5.577802
G1 X6.974700 Y5.579225
G1 X6.972400 Y5.580649
G1 X6.970100 Y5.582073
G1 X6.967800 Y5.583496
G1 X6.965501 Y5.584920
G1 X6.963201 Y5.586344
G1 X6.960901 Y5.587767
G1 X6.958601 Y5.589191
G1 X6.956301 Y5.590615
G1 X6.954001 Y5.592039
G1 X6.951701 Y5.593462
G1 X6.949401 Y5.594886
G1 X6.947101 Y5.596309
G1 X6.944801 Y5.597733
G1 X6.942501 Y5.599157
G1 X6.940201 Y5.600581
G1 X6.937902 Y5.602004
G1 X6.935602 Y5.603428
G1 X6.933302 Y5.604852
M3 S400

G0 X7.043525 Y5.634334
M3 S850
G1 X7.043525 Y5.634334
G1 X7.043559 Y5.632294
G1 X7.043592 Y5.630255
G1 X7.043626 Y5.628215
G1 X7.043659 Y5.626175
G1 X7.043693 Y5.624136
G1 X7.043726 Y5.622096
G1 X7.043760 Y5.620056
G1 X7.043793 Y5.618016
G1 X7.043826 Y5.615977
G1 X7.043860 Y5.613937
G1 X7.043894 Y5.611897
G1 X7.043927 Y5.609858
G1 X7.043960 Y5.607818
G1 X7.043994 Y5.605778
G1 X7.044027 Y5.603739
G1 X7.044061 Y5.601699
G1 X7.044094 Y5.599659
G1 X7.044128 Y5.597620
G1 X7.044161 Y5.595580
G1 X7.044195 Y5.593540
G1 X7.044228 Y5.591501
G1 X7.044262 Y5.589461
G1 X7.044295 Y5.587421
G1 X7.044329 Y5.585382
G1 X7.044362 Y5.583342
G1 X7.044395 Y5.581302
G1 X7.044429 Y5.579263
G1 X7.044462 Y5.577223
G1 X7.044496 Y5.575183
G1 X7.044529 Y5.573144
G1 X7.044563 Y5.571104
G1 X7.044596 Y5.569064
G1 X7.044630 Y5.567025
G1 X7.044663 Y5.564985
G1 X7.044697 Y5.562945
G1 X7.044730 Y5.560906
G1 X7.044764 Y5.558866
G1 X7.044797 Y5.556826
G1 X7.044831 Y5.554787
G1 X7.044864 Y5.552747
G1 X7.044898 Y5.550707
G1 X7.044931 Y5.548668
G1 X7.044964 Y5.546628
G1 X7.044998 Y5.544588
G1 X7.045031 Y5.542549
G1 X7.045065 Y5.540509
G1 X7.045098 Y5.538469
G1 X7.045132 Y5.536430
G1 X7.045165 Y5.534390
G1 X7.045199 Y5.532350
G1 X7.045232 Y5.530311
G1 X7.045266 Y5.528271
G1 X7.045299 Y5.526231
G1 X7.045333 Y5.524192
G1 X7.045366 Y5.522152
G1 X7.045400 Y5.520112
G1 X7.045433 Y5.518073
G1 X7.045466 Y5.516033
G1 X7.045500 Y5.513993
G1 X7.045534 Y5.511954
G1 X7.045567 Y5.509914
G1 X7.045600 Y5.507874
G1 X7.045634 Y5.505835
G1 X7.045667 Y5.503795
G1 X7.045701 Y5.501755
G1 X7.045734 Y5.499716
M3 S400

G0 X6.980898 Y5.523581
M3 S850
G1 X6.980898 Y5.523581
G1 X6.980833 Y5.525678
G1 X6.980768 Y5.527775
G1 X6.980704 Y5.529872
G1 X6.980639 Y5.531969
G1 X6.980574 Y5.534066
G1 X6.980509 Y5.536163
G1 X6.980445 Y5.538260
G1 X6.980380 Y5.540357
G1 X6.980315 Y5.542454
G1 X6.980250 Y5.544551
G1 X6.980185 Y5.546648
G1 X6.980121 Y5.548745
G1 X6.980056 Y5.550842
G1 X6.979991 Y5.552939
G1 X6.979926 Y5.555036
G1 X6.979862 Y5.557133
G1 X6.979797 Y5.559230
G1 X6.979732 Y5.561327
G1 X6.979667 Y5.563424
G1 X6.979602 Y5.565521
G1 X6.979537 Y5.567618
G1 X6.979473 Y5.569715
G1 X6.979408 Y5.571812
G1 X6.979343 Y5.573909
G1 X6.979279 Y5.576006
G1 X6.979214 Y5.578103
G1 X6.979149 Y5.580200
G1 X6.979084 Y5.582297
G1 X6.979019 Y5.584394
G1 X6.978954 Y5.586491
G1 X6.978890 Y5.588588
G1 X6.978825 Y5.590685
G1 X6.978760 Y5.592782
G1 X6.978696 Y5.594879
G1 X6.978631 Y5.596976
G1 X6.978566 Y5.599073
G1 X6.978501 Y5.601170
G1 X6.978436 Y5.603266
G1 X6.978371 Y5.605364
G1 X6.978307 Y5.607460
G1 X6.978242 Y5.609557
G1 X6.978177 Y5.611654
G1 X6.978112 Y5.613751
G1 X6.978048 Y5.615848
G1 X6.977983 Y5.617945
G1 X6.977918 Y5.620042
G1 X6.977853 Y5.622139
G1 X6.977788 Y5.624236
G1 X6.977724 Y5.626333
G1 X6.977659 Y5.628430
G1 X6.977594 Y5.630527
G1 X6.977529 Y5.632624
G1 X6.977464 Y5.634721
G1 X6.977400 Y5.636818
G1 X6.977335 Y5.638915
G1 X6.977270 Y5.641012
G1 X6.977205 Y5.643109
G1 X6.977141 Y5.645206
G1 X6.977076 Y5.647303
G1 X6.977011 Y5.649400
G1 X6.976946 Y5.651497
G1 X6.976881 Y5.653594
G1 X6.976816 Y5.655691
G1 X6.976752 Y5.657788
G1 X6.976687 Y5.659885
G1 X6.976622 Y5.661982
M3 S400

G0 X7.085097 Y5.421356
M3 S850
G1 X7.085097 Y5.421356
G1 X7.082797 Y5.422755
G1 X7.080497 Y5.424155
G1 X7.078197 Y5.425554
G1 X7.075897 Y5.426954
G1 X7.073597 Y5.428353
G1 X7.071297 Y5.429752
G1 X7.068997 Y5.431152
G1 X7.066697 Y5.432551
G1 X7.064397 Y5.433950
G1 X7.062098 Y5.435350
G1 X7.059798 Y5.436749
G1 X7.057498 Y5.438149
G1 X7.055198 Y5.439548
G1 X7.052898 Y5.440947
G1 X7.050598 Y5.442347
G1 X7.048298 Y5.443746
G1 X7.045998 Y5.445146
G1 X7.043698 Y5.446545
G1 X7.041398 Y5.447944
G1 X7.039098 Y5.449344
G1 X7.036798 Y5.450743
G1 X7.034498 Y5.452142
G1 X7.032198 Y5.453542
G1 X7.029899 Y5.454941
G1 X7.027599 Y5.456341
G1 X7.025299 Y5.457740
G1 X7.022999 Y5.459139
G1 X7.020699 Y5.460539
G1 X7.018399 Y5.461938
G1 X7.016099 Y5.463338
G1 X7.013799 Y5.464737
G1 X7.011499 Y5.466136
G1 X7.009199 Y5.467536
G1 X7.006899 Y5.468935
G1 X7.004599 Y5.470335
G1 X7.002299 Y5.471734
G1 X6.999999 Y5.473133
G1 X6.997699 Y5.474533
G1 X6.995400 Y5.475932
G1 X6.993100 Y5.477331
G1 X6.990800 Y5.478731
G1 X6.988500 Y5.480130
G1 X6.986200 Y5.481530
G1 X6.983900 Y5.482929
G1 X6.981600 Y5.484329
G1 X6.979300 Y5.485728
G1 X6.977000 Y5.487127
G1 X6.974700 Y5.488527
G1 X6.972400 Y5.489926
G1 X6.970100 Y5.491325
G1 X6.967800 Y5.492725
G1 X6.965501 Y5.494124
G1 X6.963201 Y5.495524
G1 X6.960901 Y5.496923
G1 X6.958601 Y5.498322
G1 X6.956301 Y5.499722
G1 X6.954001 Y5.501121
G1 X6.951701 Y5.502520
G1 X6.949401 Y5.503920
G1 X6.947101 Y5.505319
G1 X6.944801 Y5.506719
G1 X6.942501 Y5.508118
G1 X6.940201 Y5.509518
G1 X6.937902 Y5.510917
G1 X6.935602 Y5.512316
G1 X6.933302 Y5.513716
M3 S400

G0 X7.085097 Y5.360888
M3 S850
G1 X7.085097 Y5.360888
G1 X7.082797 Y5.362312
G1 X7.080497 Y5.363736
G1 X7.078197 Y5.365160
G1 X7.075897 Y5.366583
G1 X7.073597 Y5.368007
G1 X7.071297 Y5.369431
G1 X7.068997 Y5.370854
G1 X7.066697 Y5.372278
G1 X7.064397 Y5.373702
G1 X7.062098 Y5.375125
G1 X7.059798 Y5.376549
G1 X7.057498 Y5.377973
G1 X7.055198 Y5.379396
G1 X7.052898 Y5.380820
G1 X7.050598 Y5.382244
G1 X7.048298 Y5.383667
G1 X7.045998 Y5.385091
G1 X7.043698 Y5.386515
G1 X7.041398 Y5.387938
G1 X7.039098 Y5.389362
G1 X7.036798 Y5.390786
G1 X7.034498 Y5.392210
G1 X7.032198 Y5.393633
G1 X7.029899 Y5.395057
G1 X7.027599 Y5.396481
G1 X7.025299 Y5.397904
G1 X7.022999 Y5.399328
G1 X7.020699 Y5.400752
G1 X7.018399 Y5.402175
G1 X7.016099 Y5.403599
G1 X7.013799 Y5.405023
G1 X7.011499 Y5.406446
G1 X7.009199 Y5.407870
G1 X7.006899 Y5.409294
G1 X7.004599 Y5.410717
G1 X7.002299 Y5.412141
G1 X6.999999 Y5.413565
G1 X6.997699 Y5.414988
G1 X6.995400 Y5.416412
G1 X6.993100 Y5.417836
G1 X6.990800 Y5.419259
G1 X6.988500 Y5.420683
G1 X6.986200 Y5.422107
G1 X6.983900 Y5.423531
G1 X6.981600 Y5.424954
G1 X6.979300 Y5.426378
G1 X6.977000 Y5.427802
G1 X6.974700 Y5.429225
G1 X6.972400 Y5.430649
G1 X6.970100 Y5.432073
G1 X6.967800 Y5.433496
G1 X6.965501 Y5.434920
G1 X6.963201 Y5.436344
G1 X6.960901 Y5.437767
G1 X6.958601 Y5.439191
G1 X6.956301 Y5.440615
G1 X6.954001 Y5.442039
G1 X6.951701 Y5.443462
G1 X6.949401 Y5.444886
G1 X6.947101 Y5.446309
G1 X6.944801 Y5.447733
G1 X6.942501 Y5.449157
G1 X6.940201 Y5.450581
G1 X6.937902 Y5.452004
G1 X6.935602 Y5.453428
G1 X6.933302 Y5.454852
M3 S400

G0 X7.043525 Y5.484334
M3 S850
G1 X7.043525 Y5.484334
G1 X7.043559 Y5.482294
G1 X7.043592 Y5.480255
G1 X7.043626 Y5.478215
G1 X7.043659 Y5.476175
G1 X7.043693 Y5.474136
G1 X7.043726 Y5.472096
G1 X7.043760 Y5.470056
G1 X7.043793 Y5.468016
G1 X7.043826 Y5.465977
G1 X7.043860 Y5.463937
G1 X7.043894 Y5.461897
G1 X7.043927 Y5.459858
G1 X7.043960 Y5.457818
G1 X7.043994 Y5.455778
G1 X7.044027 Y5.453739
G1 X7.044061 Y5.451699
G1 X7.044094 Y5.449659
G1 X7.044128 Y5.447620
G1 X7.044161 Y5.445580
G1 X7.044195 Y5.443540
G1 X7.044228 Y5.441501
G1 X7.044262 Y5.439461
G1 X7.044295 Y5.437421
G1 X7.044329 Y5.435382
G1 X7.044362 Y5.433342
G1 X7.044395 Y5.431302
G1 X7.044429 Y5.429263
G1 X7.044462 Y5.427223
G1 X7.044496 Y5.425183
G1 X7.044529 Y5.423144
G1 X7.044563 Y5.421104
G1 X7.044596 Y5.419064
G1 X7.044630 Y5.417025
G1 X7.044663 Y5.414985
G1 X7.044697 Y5.412945
G1 X7.044730 Y5.410906
G1 X7.044764 Y5.408866
G1 X7.044797 Y5.406826
G1 X7.044831 Y5.404787
G1 X7.044864 Y5.402747
G1 X7.044898 Y5.400707
G1 X7.044931 Y5.398668
G1 X7.044964 Y5.396628
G1 X7.044998 Y5.394588
G1 X7.045031 Y5.392549
G1 X7.045065 Y5.390509
G1 X7.045098 Y5.388469
G1 X7.045132 Y5.386430
G1 X7.045165 Y5.384390
G1 X7.045199 Y5.382350
G1 X7.045232 Y5.380311
G1 X7.045266 Y5.378271
G1 X7.045299 Y5.376231
G1 X7.045333 Y5.374192
G1 X7.045366 Y5.372152
G1 X7.045400 Y5.370112
G1 X7.045433 Y5.368073
G1 X7.045466 Y5.366033
G1 X7.045500 Y5.363993
G1 X7.045534 Y5.361954
G1 X7.045567 Y5.359914
G1 X7.045600 Y5.357874
G1 X7.045634 Y5.355835
G1 X7.045667 Y5.353795
G1 X7.045701 Y5.351755
G1 X7.045734 Y5.349716
M3 S400

G0 X6.980898 Y5.373581
M3 S850
G1 X6.980898 Y5.373581
G1 X6.980833 Y5.375678
G1 X6.980768 Y5.377775
G1 X6.980704 Y5.379872
G1 X6.980639 Y5.381969
G1 X6.980574 Y5.384066
G1 X6.980509 Y5.386163
G1 X6.980445 Y5.388260
G1 X6.980380 Y5.390357
G1 X6.980315 Y5.392454
G1 X6.980250 Y5.394551
G1 X6.980185 Y5.396648
G1 X6.980121 Y5.398745
G1 X6.980056 Y5.400842
G1 X6.979991 Y5.402939
G1 X6.979926 Y5.405036
G1 X6.979862 Y5.407133
G1 X6.979797 Y5.409230
G1 X6.979732 Y5.411327
G1 X6.979667 Y5.413424
G1 X6.979602 Y5.415521
G1 X6.979537 Y5.417618
G1 X6.979473 Y5.419715
G1 X6.979408 Y5.421812
G1 X6.979343 Y5.423909
G1 X6.979279 Y5.426006
G1 X6.979214 Y5.428103
G1 X6.979149 Y5.430200
G1 X6.979084 Y5.432297
G1 X6.979019 Y5.434394
G1 X6.978954 Y5.436491
G1 X6.978890 Y5.438588
G1 X6.978825 Y5.440685
G1 X6.978760 Y5.442782
G1 X6.978696 Y5.444879
G1 X6.978631 Y5.446976
G1 X6.978566 Y5.449073
G1 X6.978501 Y5.451170
G1 X6.978436 Y5.453266
G1 X6.978371 Y5.455364
G1 X6.978307 Y5.457460
G1 X6.978242 Y5.459557
G1 X6.978177 Y5.461654
G1 X6.978112 Y5.463751
G1 X6.978048 Y5.465848
G1 X6.977983 Y5.467945
G1 X6.977918 Y5.470042
G1 X6.977853 Y5.472139
G1 X6.977788 Y5.474236
G1 X6.977724 Y5.476333
G1 X6.977659 Y5.478430
G1 X6.977594 Y5.480527
G1 X6.977529 Y5.482624
G1 X6.977464 Y5.484721
G1 X6.977400 Y5.486818
G1 X6.977335 Y5.488915
G1 X6.977270 Y5.491012
G1 X6.977205 Y5.493109
G1 X6.977141 Y5.495206
G1 X6.977076 Y5.497303
G1 X6.977011 Y5.499400
G1 X6.976946 Y5.501497
G1 X6.976881 Y5.503594
G1 X6.976816 Y5.505691
G1 X6.976752 Y5.507788
G1 X6.976687 Y5.509885
G1 X6.976622 Y5.511982
M3 S400

G0 X7.085097 Y5.271356
M3 S850
G1 X7.085097 Y5.271356
G1 X7.082797 Y5.272755
G1 X7.080497 Y5.274155
G1 X7.078197 Y5.275554
G1 X7.075897 Y5.276954
G1 X7.073597 Y5.278353
G1 X7.071297 Y5.279752
G1 X7.068997 Y5.281152
G1 X7.066697 Y5.282551
G1 X7.064397 Y5.283950
G1 X7.062098 Y5.285350
G1 X7.059798 Y5.286749
G1 X7.057498 Y5.288149
G1 X7.055198 Y5.289548
G1 X7.052898 Y5.290947
G1 X7.050598 Y5.292347
G1 X7.048298 Y5.293746
G1 X7.045998 Y5.295146
G1 X7.043698 Y5.296545
G1 X7.041398 Y5.297944
G1 X7.039098 Y5.299344
G1 X7.036798 Y5.300743
G1 X7.034498 Y5.302142
G1 X7.032198 Y5.303542
G1 X7.029899 Y5.304941
G1 X7.027599 Y5.306341
G1 X7.025299 Y5.307740
G1 X7.022999 Y5.309139
G1 X7.020699 Y5.310539
G1 X7.018399 Y5.311938
G1 X7.016099 Y5.313338
G1 X7.013799 Y5.314737
G1 X7.011499 Y5.316136
G1 X7.009199 Y5.317536
G1 X7.006899 Y5.318935
G1 X7.004599 Y5.320335
G1 X7.002299 Y5.321734
G1 X6.999999 Y5.323133
G1 X6.997699 Y5.324533
G1 X6.995400 Y5.325932
G1 X6.993100 Y5.327331
G1 X6.990800 Y5.328731
G1 X6.988500 Y5.330130
G1 X6.986200 Y5.331530
G1 X6.983900 Y5.332929
G1 X6.981600 Y5.334329
G1 X6.979300 Y5.335728
G1 X6.977000 Y5.337127
G1 X6.974700 Y5.338527
G1 X6.972400 Y5.339926
G1 X6.970100 Y5.341325
G1 X6.967800 Y5.342725
G1 X6.965501 Y5.344124
G1 X6.963201 Y5.345524
G1 X6.960901 Y5.346923
G1 X6.958601 Y5.348322
G1 X6.956301 Y5.349722
G1 X6.954001 Y5.351121
G1 X6.951701 Y5.352520
G1 X6.949401 Y5.353920
G1 X6.947101 Y5.355319
G1 X6.944801 Y5.356719
G1 X6.942501 Y5.358118
G1 X6.940201 Y5.359518
G1 X6.937902 Y5.360917
G1 X6.935602 Y5.362316
G1 X6.933302 Y5.363716
M3 S400

G0 X7.085097 Y5.210888
M3 S850
G1 X7.085097 Y5.210888
G1 X7.082797 Y5.212312
G1 X7.080497 Y5.213736
G1 X7.078197 Y5.215160
G1 X7.075897 Y5.216583
G1 X7.073597 Y5.218007
G1 X7.071297 Y5.219431
G1 X7.068997 Y5.220854
G1 X7.066697 Y5.222278
G1 X7.064397 Y5.223702
G1 X7.062098 Y5.225125
G1 X7.059798 Y5.226549
G1 X7.057498 Y5.227973
G1 X7.055198 Y5.229396
G1 X7.052898 Y5.230820
G1 X7.050598 Y5.232244
G1 X7.048298 Y5.233667
G1 X7.045998 Y5.235091
G1 X7.043698 Y5.236515
G1 X7.041398 Y5.237938
G1 X7.039098 Y5.239362
G1 X7.036798 Y5.240786
G1 X7.034498 Y5.242210
G1 X7.032198 Y5.243633
G1 X7.029899 Y5.245057
G1 X7.027599 Y5.246481
G1 X7.025299 Y5.247904
G1 X7.022999 Y5.249328
G1 X7.020699 Y5.250752
G1 X7.018399 Y5.252175
G1 X7.016099 Y5.253599
G1 X7.013799 Y5.255023
G1 X7.011499 Y5.256446
G1 X7.009199 Y5.257870
G1 X7.006899 Y5.259294
G1 X7.004599 Y5.260717
G1 X7.002299 Y5.262141
G1 X6.999999 Y5.263565
G1 X6.997699 Y5.264988
G1 X6.995400 Y5.266412
G1 X6.993100 Y5.267836
G1 X6.990800 Y5.269259
G1 X6.988500 Y5.270683
G1 X6.986200 Y5.272107
G1 X6.983900 Y5.273531
G1 X6.981600 Y5.274954
G1 X6.979300 Y5.276378
G1 X6.977000 Y5.277802
G1 X6.974700 Y5.279225
G1 X6.972400 Y5.280649
G1 X6.970100 Y5.282073
G1 X6.967800 Y5.283496
G1 X6.965501 Y5.284920
G1 X6.963201 Y5.286344
G1 X6.960901 Y5.287767
G1 X6.958601 Y5.289191
G1 X6.956301 Y5.290615
G1 X6.954001 Y5.292039
G1 X6.951701 Y5.293462
G1 X6.949401 Y5.294886
G1 X6.947101 Y5.296309
G1 X6.944801 Y5.297733
G1 X6.942501 Y5.299157
G1 X6.940201 Y5.300581
G1 X6.937902 Y5.302004
G1 X6.935602 Y5.303428
G1 X6.933302 Y5.304852
M3 S400

G0 X7.043525 Y5.334334
M3 S850
G1 X7.043525 Y5.334334
G1 X7.043559 Y5.332294
G1 X7.043592 Y5.330255
G1 X7.043626 Y5.328215
G1 X7.043659 Y5.326175
G1 X7.043693 Y5.324136
G1 X7.043726 Y5.322096
G1 X7.043760 Y5.320056
G1 X7.043793 Y5.318016
G1 X7.043826 Y5.315977
G1 X7.043860 Y5.313937
G1 X7.043894 Y5.311897
G1 X7.043927 Y5.309858
G1 X7.043960 Y5.307818
G1 X7.043994 Y5.305778
G1 X7.044027 Y5.303739
G1 X7.044061 Y5.301699
G1 X7.044094 Y5.299659
G1 X7.044128 Y5.297620
G1 X7.044161 Y5.295580
G1 X7.044195 Y5.293540
G1 X7.044228 Y5.291501
G1 X7.044262 Y5.289461
G1 X7.044295 Y5.287421
G1 X7.044329 Y5.285382
G1 X7.044362 Y5.283342
G1 X7.044395 Y5.281302
G1 X7.044429 Y5.279263
G1 X7.044462 Y5.277223
G1 X7.044496 Y5.275183
G1 X7.044529 Y5.273144
G1 X7.044563 Y5.271104
G1 X7.044596 Y5.269064
G1 X7.044630 Y5.267025
G1 X7.044663 Y5.264985
G1 X7.044697 Y5.262945
G1 X7.044730 Y5.260906
G1 X7.044764 Y5.258866
G1 X7.044797 Y5.256826
G1 X7.044831 Y5.254787
G1 X7.044864 Y5.252747
G1 X7.044898 Y5.250707
G1 X7.044931 Y5.248668
G1 X7.044964 Y5.246628
G1 X7.044998 Y5.244588
G1 X7.045031 Y5.242549
G1 X7.045065 Y5.240509
G1 X7.045098 Y5.238469
G1 X7.045132 Y5.236430
G1 X7.045165 Y5.234390
G1 X7.045199 Y5.232350
G1 X7.045232 Y5.230311
G1 X7.045266 Y5.228271
G1 X7.045299 Y5.226231
G1 X7.045333 Y5.224192
G1 X7.045366 Y5.222152
G1 X7.045400 Y5.220112
G1 X7.045433 Y5.218073
G1 X7.045466 Y5.216033
G1 X7.045500 Y5.213993
G1 X7.045534 Y5.211954
G1 X7.045567 Y5.209914
G1 X7.045600 Y5.207874
G1 X7.045634 Y5.205835
G1 X7.045667 Y5.203795
G1 X7.045701 Y5.201755
G1 X7.045734 Y5.199716
M3 S400

G0 X6.980898 Y5.223581
M3 S850
G1 X6.980898 Y5.223581
G1 X6.980833 Y5.225678
G1 X6.980768 Y5.227775
G1 X6.980704 Y5.229872
G1 X6.980639 Y5.231969
G1 X6.980574 Y5.234066
G1 X6.980509 Y5.236163
G1 X6.980445 Y5.238260
G1 X6.980380 Y5.240357
G1 X6.980315 Y5.242454
G1 X6.980250 Y5.244551
G1 X6.980185 Y5.246648
G1 X6.980121 Y5.248745
G1 X6.980056 Y5.250842
G1 X6.979991 Y5.252939
G1 X6.979926 Y5.255036
G1 X6.979862 Y5.257133
G1 X6.979797 Y5.259230
G1 X6.979732 Y5.261327
G1 X6.979667 Y5.263424
G1 X6.979602 Y5.265521
G1 X6.979537 Y5.267618
G1 X6.979473 Y5.269715
G1 X6.979408 Y5.271812
G1 X6.979343 Y5.273909
G1 X6.979279 Y5.276006
G1 X6.979214 Y5.278103
G1 X6.979149 Y5.280200
G1 X6.979084 Y5.282297
G1 X6.979019 Y5.284394
G1 X6.978954 Y5.286491
G1 X6.978890 Y5.288588
G1 X6.978825 Y5.290685
G1 X6.978760 Y5.292782
G1 X6.978696 Y5.294879
G1 X6.978631 Y5.296976
G1 X6.978566 Y5.299073
G1 X6.978501 Y5.301170
G1 X6.978436 Y5.303266
G1 X6.978371 Y5.305364
G1 X6.978307 Y5.307460
G1 X6.978242 Y5.309557
G1 X6.978177 Y5.311654
G1 X6.978112 Y5.313751
G1 X6.978048 Y5.315848
G1 X6.977983 Y5.317945
G1 X6.977918 Y5.320042
G1 X6.977853 Y5.322139
G1 X6.977788 Y5.324236
G1 X6.977724 Y5.326333
G1 X6.977659 Y5.328430
G1 X6.977594 Y5.330527
G1 X6.977529 Y5.332624
G1 X6.977464 Y5.334721
G1 X6.977400 Y5.336818
G1 X6.977335 Y5.338915
G1 X6.977270 Y5.341012
G1 X6.977205 Y5.343109
G1 X6.977141 Y5.345206
G1 X6.977076 Y5.347303
G1 X6.977011 Y5.349400
G1 X6.976946 Y5.351497
G1 X6.976881 Y5.353594
G1 X6.976816 Y5.355691
G1 X6.976752 Y5.357788
G1 X6.976687 Y5.359885
G1 X6.976622 Y5.361982
M3 S400

G0 X7.085097 Y5.121356
M3 S850
G1 X7.085097 Y5.121356
G1 X7.082797 Y5.122755
G1 X7.080497 Y5.124155
G1 X7.078197 Y5.125554
G1 X7.075897 Y5.126954
G1 X7.073597 Y5.128353
G1 X7.071297 Y5.129752
G1 X7.068997 Y5.131152
G1 X7.066697 Y5.132551
G1 X7.064397 Y5.133950
G1 X7.062098 Y5.135350
G1 X7.059798 Y5.136749
G1 X7.057498 Y5.138149
G1 X7.055198 Y5.139548
G1 X7.052898 Y5.140947
G1 X7.050598 Y5.142347
G1 X7.048298 Y5.143746
G1 X7.045998 Y5.145146
G1 X7.043698 Y5.146545
G1 X7.041398 Y5.147944
G1 X7.039098 Y5.149344
G1 X7.036798 Y5.150743
G1 X7.034498 Y5.152142
G1 X7.032198 Y5.153542
G1 X7.029899 Y5.154941
G1 X7.027599 Y5.156341
G1 X7.025299 Y5.157740
G1 X7.022999 Y5.159139
G1 X7.020699 Y5.160539
G1 X7.018399 Y5.161938
G1 X7.016099 Y5.163338
G1 X7.013799 Y5.164737
G1 X7.011499 Y5.166136
G1 X7.009199 Y5.167536
G1 X7.006899 Y5.168935
G1 X7.004599 Y5.170335
G1 X7.002299 Y5.171734
G1 X6.999999 Y5.173133
G1 X6.997699 Y5.174533
G1 X6.995400 Y5.175932
G1 X6.993100 Y5.177331
G1 X6.990800 Y5.178731
G1 X6.988500 Y5.180130
G1 X6.986200 Y5.181530
G1 X6.983900 Y5.182929
G1 X6.981600 Y5.184329
G1 X6.979300 Y5.185728
G1 X6.977000 Y5.187127
G1 X6.974700 Y5.188527
G1 X6.972400 Y5.189926
G1 X6.970100 Y5.191325
G1 X6.967800 Y5.192725
G1 X6.965501 Y5.194124
G1 X6.963201 Y5.195524
G1 X6.960901 Y5.196923
G1 X6.958601 Y5.198322
G1 X6.956301 Y5.199722
G1 X6.954001 Y5.201121
G1 X6.951701 Y5.202520
G1 X6.949401 Y5.203920
G1 X6.947101 Y5.205319
G1 X6.944801 Y5.206719
G1 X6.942501 Y5.208118
G1 X6.940201 Y5.209518
G1 X6.937902 Y5.210917
G1 X6.935602 Y5.212316
G1 X6.933302 Y5.213716
M3 S400

G0 X7.085097 Y5.060888
M3 S850
G1 X7.085097 Y5.060888
G1 X7.082797 Y5.062312
G1 X7.080497 Y5.063736
G1 X7.078197 Y5.065160
G1 X7.075897 Y5.066583
G1 X7.073597 Y5.068007
G1 X7.071297 Y5.069431
G1 X7.068997 Y5.070854
G1 X7.066697 Y5.072278
G1 X7.064397 Y5.073702
G1 X7.062098 Y5.075125
G1 X7.059798 Y5.076549
G1 X7.057498 Y5.077973
G1 X7.055198 Y5.079396
G1 X7.052898 Y5.080820
G1 X7.050598 Y5.082244
G1 X7.048298 Y5.083667
G1 X7.045998 Y5.085091
G1 X7.043698 Y5.086515
G1 X7.041398 Y5.087938
G1 X7.039098 Y5.089362
G1 X7.036798 Y5.090786
G1 X7.034498 Y5.092210
G1 X7.032198 Y5.093633
G1 X7.029899 Y5.095057
G1 X7.027599 Y5.096481
G1 X7.025299 Y5.097904
G1 X7.022999 Y5.099328
G1 X7.020699 Y5.100752
G1 X7.018399 Y5.102175
G1 X7.016099 Y5.103599
G1 X7.013799 Y5.105023
G1 X7.011499 Y5.106446
G1 X7.009199 Y5.107870
G1 X7.006899 Y5.109294
G1 X7.004599 Y5.110717
G1 X7.002299 Y5.112141
G1 X6.999999 Y5.113565
G1 X6.997699 Y5.114988
G1 X6.995400 Y5.116412
G1 X6.993100 Y5.117836
G1 X6.990800 Y5.119259
G1 X6.988500 Y5.120683
G1 X6.986200 Y5.122107
G1 X6.983900 Y5.123531
G1 X6.981600 Y5.124954
G1 X6.979300 Y5.126378
G1 X6.977000 Y5.127802
G1 X6.974700 Y5.129225
G1 X6.972400 Y5.130649
G1 X6.970100 Y5.132073
G1 X6.967800 Y5.133496
G1 X6.965501 Y5.134920
G1 X6.963201 Y5.136344
G1 X6.960901 Y5.137767
G1 X6.958601 Y5.139191
G1 X6.956301 Y5.140615
G1 X6.954001 Y5.142039
G1 X6.951701 Y5.143462
G1 X6.949401 Y5.144886
G1 X6.947101 Y5.146309
G1 X6.944801 Y5.147733
G1 X6.942501 Y5.149157
G1 X6.940201 Y5.150581
G1 X6.937902 Y5.152004
G1 X6.935602 Y5.153428
G1 X6.933302 Y5.154852
M3 S400

G0 X7.043525 Y5.184334
M3 S850
G1 X7.043525 Y5.184334
G1 X7.043559 Y5.182294
G1 X7.043592 Y5.180255
G1 X7.043626 Y5.178215
G1 X7.043659 Y5.176175
G1 X7.043693 Y5.174136
G1 X7.043726 Y5.172096
G1 X7.043760 Y5.170056
G1 X7.043793 Y5.168016
G1 X7.043826 Y5.165977
G1 X7.043860 Y5.163937
G1 X7.043894 Y5.161897
G1 X7.043927 Y5.159858
G1 X7.043960 Y5.157818
G1 X7.043994 Y5.155778
G1 X7.044027 Y5.153739
G1 X7.044061 Y5.151699
G1 X7.044094 Y5.149659
G1 X7.044128 Y5.147620
G1 X7.044161 Y5.145580
G1 X7.044195 Y5.143540
G1 X7.044228 Y5.141501
G1 X7.044262 Y5.139461
G1 X7.044295 Y5.137421
G1 X7.044329 Y5.135382
G1 X7.044362 Y5.133342
G1 X7.044395 Y5.131302
G1 X7.044429 Y5.129263
G1 X7.044462 Y5.127223
G1 X7.044496 Y5.125183
G1 X7.044529 Y5.123144
G1 X7.044563 Y5.121104
G1 X7.044596 Y5.119064
G1 X7.044630 Y5.117025
G1 X7.044663 Y5.114985
G1 X7.044697 Y5.112945
G1 X7.044730 Y5.110906
G1 X7.044764 Y5.108866
G1 X7.044797 Y5.106826
G1 X7.044831 Y5.104787
G1 X7.044864 Y5.102747
G1 X7.044898 Y5.100707
G1 X7.044931 Y5.098668
G1 X7.044964 Y5.096628
G1 X7.044998 Y5.094588
G1 X7.045031 Y5.092549
G1 X7.045065 Y5.090509
G1 X7.045098 Y5.088469
G1 X7.045132 Y5.086430
G1 X7.045165 Y5.084390
G1 X7.045199 Y5.082350
G1 X7.045232 Y5.080311
G1 X7.045266 Y5.078271
G1 X7.045299 Y5.076231
G1 X7.045333 Y5.074192
G1 X7.045366 Y5.072152
G1 X7.045400 Y5.070112
G1 X7.045433 Y5.068073
G1 X7.045466 Y5.066033
G1 X7.045500 Y5.063993
G1 X7.045534 Y5.061954
G1 X7.045567 Y5.059914
G1 X7.045600 Y5.057874
G1 X7.045634 Y5.055835
G1 X7.045667 Y5.053795
G1 X7.045701 Y5.051755
G1 X7.045734 Y5.049716
M3 S400

G0 X6.980898 Y5.073581
M3 S850
G1 X6.980898 Y5.073581
G1 X6.980833 Y5.075678
G1 X6.980768 Y5.077775
G1 X6.980704 Y5.079872
G1 X6.980639 Y5.081969
G1 X6.980574 Y5.084066
G1 X6.980509 Y5.086163
G1 X6.980445 Y5.088260
G1 X6.980380 Y5.090357
G1 X6.980315 Y5.092454
G1 X6.980250 Y5.094551
G1 X6.980185 Y5.096648
G1 X6.980121 Y5.098745
G1 X6.980056 Y5.100842
G1 X6.979991 Y5.102939
G1 X6.979926 Y5.105036
G1 X6.979862 Y5.107133
G1 X6.979797 Y5.109230
G1 X6.979732 Y5.111327
G1 X6.979667 Y5.113424
G1 X6.979602 Y5.115521
G1 X6.979537 Y5.117618
G1 X6.979473 Y5.119715
G1 X6.979408 Y5.121812
G1 X6.979343 Y5.123909
G1 X6.979279 Y5.126006
G1 X6.979214 Y5.128103
G1 X6.979149 Y5.130200
G1 X6.979084 Y5.132297
G1 X6.979019 Y5.134394
G1 X6.978954 Y5.136491
G1 X6.978890 Y5.138588
G1 X6.978825 Y5.140685
G1 X6.978760 Y5.142782
G1 X6.978696 Y5.144879
G1 X6.978631 Y5.146976
G1 X6.978566 Y5.149073
G1 X6.978501 Y5.151170
G1 X6.978436 Y5.153266
G1 X6.978371 Y5.155364
G1 X6.978307 Y5.157460
G1 X6.978242 Y5.159557
G1 X6.978177 Y5.161654
G1 X6.978112 Y5.163751
G1 X6.978048 Y5.165848
G1 X6.977983 Y5.167945
G1 X6.977918 Y5.170042
G1 X6.977853 Y5.172139
G1 X6.977788 Y5.174236
G1 X6.977724 Y5.176333
G1 X6.977659 Y5.178430
G1 X6.977594 Y5.180527
G1 X6.977529 Y5.182624
G1 X6.977464 Y5.184721
G1 X6.977400 Y5.186818
G1 X6.977335 Y5.188915
G1 X6.977270 Y5.191012
G1 X6.977205 Y5.193109
G1 X6.977141 Y5.195206
G1 X6.977076 Y5.197303
G1 X6.977011 Y5.199400
G1 X6.976946 Y5.201497
G1 X6.976881 Y5.203594
G1 X6.976816 Y5.205691
G1 X6.976752 Y5.207788
G1 X6.976687 Y5.209885
G1 X6.976622 Y5.211982
M3 S400

G0 X7.085097 Y4.971356
M3 S850
G1 X7.085097 Y4.971356
G1 X7.082797 Y4.972755
G1 X7.080497 Y4.974155
G1 X7.078197 Y4.975554
G1 X7.075897 Y4.976954
G1 X7.073597 Y4.978353
G1 X7.071297 Y4.979752
G1 X7.068997 Y4.981152
G1 X7.066697 Y4.982551
G1 X7.064397 Y4.983950
G1 X7.062098 Y4.985350
G1 X7.059798 Y4.986749
G1 X7.057498 Y4.988149
G1 X7.055198 Y4.989548
G1 X7.052898 Y4.990947
G1 X7.050598 Y4.992347
G1 X7.048298 Y4.993746
G1 X7.045998 Y4.995146
G1 X7.043698 Y4.996545
G1 X7.041398 Y4.997944
G1 X7.039098 Y4.999344
G1 X7.036798 Y5.000743
G1 X7.034498 Y5.002142
G1 X7.032198 Y5.003542
G1 X7.029899 Y5.004941
G1 X7.027599 Y5.006341
G1 X7.025299 Y5.007740
G1 X7.022999 Y5.009139
G1 X7.020699 Y5.010539
G1 X7.018399 Y5.011938
G1 X7.016099 Y5.013338
G1 X7.013799 Y5.014737
G1 X7.011499 Y5.016136
G1 X7.009199 Y5.017536
G1 X7.006899 Y5.018935
G1 X7.004599 Y5.020335
G1 X7.002299 Y5.021734
G1 X6.999999 Y5.023133
G1 X6.997699 Y5.024533
G1 X6.995400 Y5.025932
G1 X6.993100 Y5.027331
G1 X6.990800 Y5.028731
G1 X6.988500 Y5.030130
G1 X6.986200 Y5.031530
G1 X6.983900 Y5.032929
G1 X6.981600 Y5.034329
G1 X6.979300 Y5.035728
G1 X6.977000 Y5.037127
G1 X6.974700 Y5.038527
G1 X6.972400 Y5.039926
G1 X6.970100 Y5.041325
G1 X6.967800 Y5.042725
G1 X6.965501 Y5.044124
G1 X6.963201 Y5.045524
G1 X6.960901 Y5.046923
G1 X6.958601 Y5.048322
G1 X6.956301 Y5.049722
G1 X6.954001 Y5.051121
G1 X6.951701 Y5.052520
G1 X6.949401 Y5.053920
G1 X6.947101 Y5.055319
G1 X6.944801 Y5.056719
G1 X6.942501 Y5.058118
G1 X6.940201 Y5.059518
G1 X6.937902 Y5.060917
G1 X6.935602 Y5.062316
G1 X6.933302 Y5.063716
M3 S400

G0 X7.085097 Y4.910888
M3 S850
G1 X7.085097 Y4.910888
G1 X7.082797 Y4.912312
G1 X7.080497 Y4.913736
G1 X7.078197 Y4.915160
G1 X7.075897 Y4.916583
G1 X7.073597 Y4.918007
G1 X7.071297 Y4.919431
G1 X7.068997 Y4.920854
G1 X7.066697 Y4.922278
G1 X7.064397 Y4.923702
G1 X7.062098 Y4.925125
G1 X7.059798 Y4.926549
G1 X7.057498 Y4.927973
G1 X7.055198 Y4.929396
G1 X7.052898 Y4.930820
G1 X7.050598 Y4.932244
G1 X7.048298 Y4.933667
G1 X7.045998 Y4.935091
G1 X7.043698 Y4.936515
G1 X7.041398 Y4.937938
G1 X7.039098 Y4.939362
G1 X7.036798 Y4.940786
G1 X7.034498 Y4.942210
G1 X7.032198 Y4.943633
G1 X7.029899 Y4.945057
G1 X7.027599 Y4.946481
G1 X7.025299 Y4.947904
G1 X7.022999 Y4.949328
G1 X7.020699 Y4.950752
G1 X7.018399 Y4.952175
G1 X7.016099 Y4.953599
G1 X7.013799 Y4.955023
G1 X7.011499 Y4.956446
G1 X7.009199 Y4.957870
G1 X7.006899 Y4.959294
G1 X7.004599 Y4.960717
G1 X7.002299 Y4.962141
G1 X6.999999 Y4.963565
G1 X6.997699 Y4.964988
G1 X6.995400 Y4.966412
G1 X6.993100 Y4.967836
G1 X6.990800 Y4.969259
G1 X6.988500 Y4.970683
G1 X6.986200 Y4.972107
G1 X6.983900 Y4.973531
G1 X6.981600 Y4.974954
G1 X6.979300 Y4.976378
G1 X6.977000 Y4.977802
G1 X6.974700 Y4.979225
G1 X6.972400 Y4.980649
G1 X6.970100 Y4.982073
G1 X6.967800 Y4.983496
G1 X6.965501 Y4.984920
G1 X6.963201 Y4.986344
G1 X6.960901 Y4.987767
G1 X6.958601 Y4.989191
G1 X6.956301 Y4.990615
G1 X6.954001 Y4.992039
G1 X6.951701 Y4.993462
G1 X6.949401 Y4.994886
G1 X6.947101 Y4.996309
G1 X6.944801 Y4.997733
G1 X6.942501 Y4.999157
G1 X6.940201 Y5.000581
G1 X6.937902 Y5.002004
G1 X6.935602 Y5.003428
G1 X6.933302 Y5.004852
M3 S400

G0 X7.043525 Y5.034334
M3 S850
G1 X7.043525 Y5.034334
G1 X7.043559 Y5.032294
G1 X7.043592 Y5.030255
G1 X7.043626 Y5.028215
G1 X7.043659 Y5.026175
G1 X7.043693 Y5.024136
G1 X7.043726 Y5.022096
G1 X7.043760 Y5.020056
G1 X7.043793 Y5.018016
G1 X7.043826 Y5.015977
G1 X7.043860 Y5.013937
G1 X7.043894 Y5.011897
G1 X7.043927 Y5.009858
G1 X7.043960 Y5.007818
G1 X7.043994 Y5.005778
G1 X7.044027 Y5.003739
G1 X7.044061 Y5.001699
G1 X7.044094 Y4.999659
G1 X7.044128 Y4.997620
G1 X7.044161 Y4.995580
G1 X7.044195 Y4.993540
G1 X7.044228 Y4.991501
G1 X7.044262 Y4.989461
G1 X7.044295 Y4.987421
G1 X7.044329 Y4.985382
G1 X7.044362 Y4.983342
G1 X7.044395 Y4.981302
G1 X7.044429 Y4.979263
G1 X7.044462 Y4.977223
G1 X7.044496 Y4.975183
G1 X7.044529 Y4.973144
G1 X7.044563 Y4.971104
G1 X7.044596 Y4.969064
G1 X7.044630 Y4.967025
G1 X7.044663 Y4.964985
G1 X7.044697 Y4.962945
G1 X7.044730 Y4.960906
G1 X7.044764 Y4.958866
G1 X7.044797 Y4.956826
G1 X7.044831 Y4.954787
G1 X7.044864 Y4.952747
G1 X7.044898 Y4.950707
G1 X7.044931 Y4.948668
G1 X7.044964 Y4.946628
G1 X7.044998 Y4.944588
G1 X7.045031 Y4.942549
G1 X7.045065 Y4.940509
G1 X7.045098 Y4.938469
G1 X7.045132 Y4.936430
G1 X7.045165 Y4.934390
G1 X7.045199 Y4.932350
G1 X7.045232 Y4.930311
G1 X7.045266 Y4.928271
G1 X7.045299 Y4.926231
G1 X7.045333 Y4.924192
G1 X7.045366 Y4.922152
G1 X7.045400 Y4.920112
G1 X7.045433 Y4.918073
G1 X7.045466 Y4.916033
G1 X7.045500 Y4.913993
G1 X7.045534 Y4.911954
G1 X7.045567 Y4.909914
G1 X7.045600 Y4.907874
G1 X7.045634 Y4.905835
G1 X7.045667 Y4.903795
G1 X7.045701 Y4.901755
G1 X7.045734 Y4.899716
M3 S400

G0 X6.980898 Y4.923581
M3 S850
G1 X6.980898 Y4.923581
G1 X6.980833 Y4.925678
G1 X6.980768 Y4.927775
G1 X6.980704 Y4.929872
G1 X6.980639 Y4.931969
G1 X6.980574 Y4.934066
G1 X6.980509 Y4.936163
G1 X6.980445 Y4.938260
G1 X6.980380 Y4.940357
G1 X6.980315 Y4.942454
G1 X6.980250 Y4.944551
G1 X6.980185 Y4.946648
G1 X6.980121 Y4.948745
G1 X6.980056 Y4.950842
G1 X6.979991 Y4.952939
G1 X6.979926 Y4.955036
G1 X6.979862 Y4.957133
G1 X6.979797 Y4.959230
G1 X6.979732 Y4.961327
G1 X6.979667 Y4.963424
G1 X6.979602 Y4.965521
G1 X6.979537 Y4.967618
G1 X6.979473 Y4.969715
G1 X6.979408 Y4.971812
G1 X6.979343 Y4.973909
G1 X6.979279 Y4.976006
G1 X6.979214 Y4.978103
G1 X6.979149 Y4.980200
G1 X6.979084 Y4.982297
G1 X6.979019 Y4.984394
G1 X6.978954 Y4.986491
G1 X6.978890 Y4.988588
G1 X6.978825 Y4.990685
G1 X6.978760 Y4.992782
G1 X6.978696 Y4.994879
G1 X6.978631 Y4.996976
G1 X6.978566 Y4.999073
G1 X6.978501 Y5.001170
G1 X6.978436 Y5.003266
G1 X6.978371 Y5.005364
G1 X6.978307 Y5.007460
G1 X6.978242 Y5.009557
G1 X6.978177 Y5.011654
G1 X6.978112 Y5.013751
G1 X6.978048 Y5.015848
G1 X6.977983 Y5.017945
G1 X6.977918 Y5.020042
G1 X6.977853 Y5.022139
G1 X6.977788 Y5.024236
G1 X6.977724 Y5.026333
G1 X6.977659 Y5.028430
G1 X6.977594 Y5.030527
G1 X6.977529 Y5.032624
G1 X6.977464 Y5.034721
G1 X6.977400 Y5.036818
G1 X6.977335 Y5.038915
G1 X6.977270 Y5.041012
G1 X6.977205 Y5.043109
G1 X6.977141 Y5.045206
G1 X6.977076 Y5.047303
G1 X6.977011 Y5.049400
G1 X6.976946 Y5.051497
G1 X6.976881 Y5.053594
G1 X6.976816 Y5.055691
G1 X6.976752 Y5.057788
G1 X6.976687 Y5.059885
G1 X6.976622 Y5.061982
M3 S400

G0 X7.085097 Y4.821356
M3 S850
G1 X7.085097 Y4.821356
G1 X7.082797 Y4.822755
G1 X7.080497 Y4.824155
G1 X7.078197 Y4.825554
G1 X7.075897 Y4.826954
G1 X7.073597 Y4.828353
G1 X7.071297 Y4.829752
G1 X7.068997 Y4.831152
G1 X7.066697 Y4.832551
G1 X7.064397 Y4.833950
G1 X7.062098 Y4.835350
G1 X7.059798 Y4.836749
G1 X7.057498 Y4.838149
G1 X7.055198 Y4.839548
G1 X7.052898 Y4.840947
G1 X7.050598 Y4.842347
G1 X7.048298 Y4.843746
G1 X7.045998 Y4.845146
G1 X7.043698 Y4.846545
G1 X7.041398 Y4.847944
G1 X7.039098 Y4.849344
G1 X7.036798 Y4.850743
G1 X7.034498 Y4.852142
G1 X7.032198 Y4.853542
G1 X7.029899 Y4.854941
G1 X7.027599 Y4.856341
G1 X7.025299 Y4.857740
G1 X7.022999 Y4.859139
G1 X7.020699 Y4.860539
G1 X7.018399 Y4.861938
G1 X7.016099 Y4.863338
G1 X7.013799 Y4.864737
G1 X7.011499 Y4.866136
G1 X7.009199 Y4.867536
G1 X7.006899 Y4.868935
G1 X7.004599 Y4.870335
G1 X7.002299 Y4.871734
G1 X6.999999 Y4.873133
G1 X6.997699 Y4.874533
G1 X6.995400 Y4.875932
G1 X6.993100 Y4.877331
G1 X6.990800 Y4.878731
G1 X6.988500 Y4.880130
G1 X6.986200 Y4.881530
G1 X6.983900 Y4.882929
G1 X6.981600 Y4.884329
G1 X6.979300 Y4.885728
G1 X6.977000 Y4.887127
G1 X6.974700 Y4.888527
G1 X6.972400 Y4.889926
G1 X6.970100 Y4.891325
G1 X6.967800 Y4.892725
G1 X6.965501 Y4.894124
G1 X6.963201 Y4.895524
G1 X6.960901 Y4.896923
G1 X6.958601 Y4.898322
G1 X6.956301 Y4.899722
G1 X6.954001 Y4.901121
G1 X6.951701 Y4.902520
G1 X6.949401 Y4.903920
G1 X6.947101 Y4.905319
G1 X6.944801 Y4.906719
G1 X6.942501 Y4.908118
G1 X6.940201 Y4.909518
G1 X6.937902 Y4.910917
G1 X6.935602 Y4.912316
G1 X6.933302 Y4.913716
M3 S400

G0 X7.085097 Y4.760888
M3 S850
G1 X7.085097 Y4.760888
G1 X7.082797 Y4.762312
G1 X7.080497 Y4.763736
G1 X7.078197 Y4.765160
G1 X7.075897 Y4.766583
G1 X7.073597 Y4.768007
G1 X7.071297 Y4.769431
G1 X7.068997 Y4.770854
G1 X7.066697 Y4.772278
G1 X7.064397 Y4.773702
G1 X7.062098 Y4.775125
G1 X7.059798 Y4.776549
G1 X7.057498 Y4.777973
G1 X7.055198 Y4.779396
G1 X7.052898 Y4.780820
G1 X7.050598 Y4.782244
G1 X7.048298 Y4.783667
G1 X7.045998 Y4.785091
G1 X7.043698 Y4.786515
G1 X7.041398 Y4.787938
G1 X7.039098 Y4.789362
G1 X7.036798 Y4.790786
G1 X7.034498 Y4.792210
G1 X7.032198 Y4.793633
G1 X7.029899 Y4.795057
G1 X7.027599 Y4.796481
G1 X7.025299 Y4.797904
G1 X7.022999 Y4.799328
G1 X7.020699 Y4.800752
G1 X7.018399 Y4.802175
G1 X7.016099 Y4.803599
G1 X7.013799 Y4.805023
G1 X7.011499 Y4.806446
G1 X7.009199 Y4.807870
G1 X7.006899 Y4.809294
G1 X7.004599 Y4.810717
G1 X7.002299 Y4.812141
G1 X6.999999 Y4.813565
G1 X6.997699 Y4.814988
G1 X6.995400 Y4.816412
G1 X6.993100 Y4.817836
G1 X6.990800 Y4.819259
G1 X6.988500 Y4.820683
G1 X6.986200 Y4.822107
G1 X6.983900 Y4.823531
G1 X6.981600 Y4.824954
G1 X6.979300 Y4.826378
G1 X6.977000 Y4.827802
G1 X6.974700 Y4.829225
G1 X6.972400 Y4.830649
G1 X6.970100 Y4.832073
G1 X6.967800 Y4.833496
G1 X6.965501 Y4.834920
G1 X6.963201 Y4.836344
G1 X6.960901 Y4.837767
G1 X6.958601 Y4.839191
G1 X6.956301 Y4.840615
G1 X6.954001 Y4.842039
G1 X6.951701 Y4.843462
G1 X6.949401 Y4.844886
G1 X6.947101 Y4.846309
G1 X6.944801 Y4.847733
G1 X6.942501 Y4.849157
G1 X6.940201 Y4.850581
G1 X6.937902 Y4.852004
G1 X6.935602 Y4.853428
G1 X6.933302 Y4.854852
M3 S400

G0 X7.043525 Y4.884334
M3 S850
G1 X7.043525 Y4.884334
G1 X7.043559 Y4.882294
G1 X7.043592 Y4.880255
G1 X7.043626 Y4.878215
G1 X7.043659 Y4.876175
G1 X7.043693 Y4.874136
G1 X7.043726 Y4.872096
G1 X7.043760 Y4.870056
G1 X7.043793 Y4.868016
G1 X7.043826 Y4.865977
G1 X7.043860 Y4.863937
G1 X7.043894 Y4.861897
G1 X7.043927 Y4.859858
G1 X7.043960 Y4.857818
G1 X7.043994 Y4.855778
G1 X7.044027 Y4.853739
G1 X7.044061 Y4.851699
G1 X7.044094 Y4.849659
G1 X7.044128 Y4.847620
G1 X7.044161 Y4.845580
G1 X7.044195 Y4.843540
G1 X7.044228 Y4.841501
G1 X7.044262 Y4.839461
G1 X7.044295 Y4.837421
G1 X7.044329 Y4.835382
G1 X7.044362 Y4.833342
G1 X7.044395 Y4.831302
G1 X7.044429 Y4.829263
G1 X7.044462 Y4.827223
G1 X7.044496 Y4.825183
G1 X7.044529 Y4.823144
G1 X7.044563 Y4.821104
G1 X7.044596 Y4.819064
G1 X7.044630 Y4.817025
G1 X7.044663 Y4.814985
G1 X7.044697 Y4.812945
G1 X7.044730 Y4.810906
G1 X7.044764 Y4.808866
G1 X7.044797 Y4.806826
G1 X7.044831 Y4.804787
G1 X7.044864 Y4.802747
G1 X7.044898 Y4.800707
G1 X7.044931 Y4.798668
G1 X7.044964 Y4.796628
G1 X7.044998 Y4.794588
G1 X7.045031 Y4.792549
G1 X7.045065 Y4.790509
G1 X7.045098 Y4.788469
G1 X7.045132 Y4.786430
G1 X7.045165 Y4.784390
G1 X7.045199 Y4.782350
G1 X7.045232 Y4.780311
G1 X7.045266 Y4.778271
G1 X7.045299 Y4.776231
G1 X7.045333 Y4.774192
G1 X7.045366 Y4.772152
G1 X7.045400 Y4.770112
G1 X7.045433 Y4.768073
G1 X7.045466 Y4.766033
G1 X7.045500 Y4.763993
G1 X7.045534 Y4.761954
G1 X7.045567 Y4.759914
G1 X7.045600 Y4.757874
G1 X7.045634 Y4.755835
G1 X7.045667 Y4.753795
G1 X7.045701 Y4.751755
G1 X7.045734 Y4.749716
M3 S400

G0 X6.980898 Y4.773581
M3 S850
G1 X6.980898 Y4.773581
G1 X6.980833 Y4.775678
G1 X6.980768 Y4.777775
G1 X6.980704 Y4.779872
G1 X6.980639 Y4.781969
G1 X6.980574 Y4.784066
G1 X6.980509 Y4.786163
G1 X6.980445 Y4.788260
G1 X6.980380 Y4.790357
G1 X6.980315 Y4.792454
G1 X6.980250 Y4.794551
G1 X6.980185 Y4.796648
G1 X6.980121 Y4.798745
G1 X6.980056 Y4.800842
G1 X6.979991 Y4.802939
G1 X6.979926 Y4.805036
G1 X6.979862 Y4.807133
G1 X6.979797 Y4.809230
G1 X6.979732 Y4.811327
G1 X6.979667 Y4.813424
G1 X6.979602 Y4.815521
G1 X6.979537 Y4.817618
G1 X6.979473 Y4.819715
G1 X6.979408 Y4.821812
G1 X6.979343 Y4.823909
G1 X6.979279 Y4.826006
G1 X6.979214 Y4.828103
G1 X6.979149 Y4.830200
G1 X6.979084 Y4.832297
G1 X6.979019 Y4.834394
G1 X6.978954 Y4.836491
G1 X6.978890 Y4.838588
G1 X6.978825 Y4.840685
G1 X6.978760 Y4.842782
G1 X6.978696 Y4.844879
G1 X6.978631 Y4.846976
G1 X6.978566 Y4.849073
G1 X6.978501 Y4.851170
G1 X6.978436 Y4.853266
G1 X6.978371 Y4.855364
G1 X6.978307 Y4.857460
G1 X6.978242 Y4.859557
G1 X6.978177 Y4.861654
G1 X6.978112 Y4.863751
G1 X6.978048 Y4.865848
G1 X6.977983 Y4.867945
G1 X6.977918 Y4.870042
G1 X6.977853 Y4.872139
G1 X6.977788 Y4.874236
G1 X6.977724 Y4.876333
G1 X6.977659 Y4.878430
G1 X6.977594 Y4.880527
G1 X6.977529 Y4.882624
G1 X6.977464 Y4.884721
G1 X6.977400 Y4.886818
G1 X6.977335 Y4.888915
G1 X6.977270 Y4.891012
G1 X6.977205 Y4.893109
G1 X6.977141 Y4.895206
G1 X6.977076 Y4.897303
G1 X6.977011 Y4.899400
G1 X6.976946 Y4.901497
G1 X6.976881 Y4.903594
G1 X6.976816 Y4.905691
G1 X6.976752 Y4.907788
G1 X6.976687 Y4.909885
G1 X6.976622 Y4.911982
M3 S400

G0 X7.085097 Y4.671356
M3 S850
G1 X7.085097 Y4.671356
G1 X7.082797 Y4.672755
G1 X7.080497 Y4.674155
G1 X7.078197 Y4.675554
G1 X7.075897 Y4.676954
G1 X7.073597 Y4.678353
G1 X7.071297 Y4.679752
G1 X7.068997 Y4.681152
G1 X7.066697 Y4.682551
G1 X7.064397 Y4.683950
G1 X7.062098 Y4.685350
G1 X7.059798 Y4.686749
G1 X7.057498 Y4.688149
G1 X7.055198 Y4.689548
G1 X7.052898 Y4.690947
G1 X7.050598 Y4.692347
G1 X7.048298 Y4.693746
G1 X7.045998 Y4.695146
G1 X7.043698 Y4.696545
G1 X7.041398 Y4.697944
G1 X7.039098 Y4.699344
G1 X7.036798 Y4.700743
G1 X7.034498 Y4.702142
G1 X7.032198 Y4.703542
G1 X7.029899 Y4.704941
G1 X7.027599 Y4.706341
G1 X7.025299 Y4.707740
G1 X7.022999 Y4.709139
G1 X7.020699 Y4.710539
G1 X7.018399 Y4.711938
G1 X7.016099 Y4.713338
G1 X7.013799 Y4.714737
G1 X7.011499 Y4.716136
G1 X7.009199 Y4.717536
G1 X7.006899 Y4.718935
G1 X7.004599 Y4.720335
G1 X7.002299 Y4.721734
G1 X6.999999 Y4.723133
G1 X6.997699 Y4.724533
G1 X6.995400 Y4.725932
G1 X6.993100 Y4.727331
G1 X6.990800 Y4.728731
G1 X6.988500 Y4.730130
G1 X6.986200 Y4.731530
G1 X6.983900 Y4.732929
G1 X6.981600 Y4.734329
G1 X6.979300 Y4.735728
G1 X6.977000 Y4.737127
G1 X6.974700 Y4.738527
G1 X6.972400 Y4.739926
G1 X6.970100 Y4.741325
G1 X6.967800 Y4.742725
G1 X6.965501 Y4.744124
G1 X6.963201 Y4.745524
G1 X6.960901 Y4.746923
G1 X6.958601 Y4.748322
G1 X6.956301 Y4.749722
G1 X6.954001 Y4.751121
G1 X6.951701 Y4.752520
G1 X6.949401 Y4.753920
G1 X6.947101 Y4.755319
G1 X6.944801 Y4.756719
G1 X6.942501 Y4.758118
G1 X6.940201 Y4.759518
G1 X6.937902 Y4.760917
G1 X6.935602 Y4.762316
G1 X6.933302 Y4.763716
M3 S400

G0 X7.085097 Y4.610888
M3 S850
G1 X7.085097 Y4.610888
G1 X7.082797 Y4.612312
G1 X7.080497 Y4.613736
G1 X7.078197 Y4.615160
G1 X7.075897 Y4.616583
G1 X7.073597 Y4.618007
G1 X7.071297 Y4.619431
G1 X7.068997 Y4.620854
G1 X7.066697 Y4.622278
G1 X7.064397 Y4.623702
G1 X7.062098 Y4.625125
G1 X7.059798 Y4.626549
G1 X7.057498 Y4.627973
G1 X7.055198 Y4.629396
G1 X7.052898 Y4.630820
G1 X7.050598 Y4.632244
G1 X7.048298 Y4.633667
G1 X7.045998 Y4.635091
G1 X7.043698 Y4.636515
G1 X7.041398 Y4.637938
G1 X7.039098 Y4.639362
G1 X7.036798 Y4.640786
G1 X7.034498 Y4.642210
G1 X7.032198 Y4.643633
G1 X7.029899 Y4.645057
G1 X7.027599 Y4.646481
G1 X7.025299 Y4.647904
G1 X7.022999 Y4.649328
G1 X7.020699 Y4.650752
G1 X7.018399 Y4.652175
G1 X7.016099 Y4.653599
G1 X7.013799 Y4.655023
G1 X7.011499 Y4.656446
G1 X7.009199 Y4.657870
G1 X7.006899 Y4.659294
G1 X7.004599 Y4.660717
G1 X7.002299 Y4.662141
G1 X6.999999 Y4.663565
G1 X6.997699 Y4.664988
G1 X6.995400 Y4.666412
G1 X6.993100 Y4.667836
G1 X6.990800 Y4.669259
G1 X6.988500 Y4.670683
G1 X6.986200 Y4.672107
G1 X6.983900 Y4.673531
G1 X6.981600 Y4.674954
G1 X6.979300 Y4.676378
G1 X6.977000 Y4.677802
G1 X6.974700 Y4.679225
G1 X6.972400 Y4.680649
G1 X6.970100 Y4.682073
G1 X6.967800 Y4.683496
G1 X6.965501 Y4.684920
G1 X6.963201 Y4.686344
G1 X6.960901 Y4.687767
G1 X6.958601 Y4.689191
G1 X6.956301 Y4.690615
G1 X6.954001 Y4.692039
G1 X6.951701 Y4.693462
G1 X6.949401 Y4.694886
G1 X6.947101 Y4.696309
G1 X6.944801 Y4.697733
G1 X6.942501 Y4.699157
G1 X6.940201 Y4.700581
G1 X6.937902 Y4.702004
G1 X6.935602 Y4.703428
G1 X6.933302 Y4.704852
M3 S400

G0 X7.043525 Y4.734334
M3 S850
G1 X7.043525 Y4.734334
G1 X7.043559 Y4.732294
G1 X7.043592 Y4.730255
G1 X7.043626 Y4.728215
G1 X7.043659 Y4.726175
G1 X7.043693 Y4.724136
G1 X7.043726 Y4.722096
G1 X7.043760 Y4.720056
G1 X7.043793 Y4.718016
G1 X7.043826 Y4.715977
G1 X7.043860 Y4.713937
G1 X7.043894 Y4.711897
G1 X7.043927 Y4.709858
G1 X7.043960 Y4.707818
G1 X7.043994 Y4.705778
G1 X7.044027 Y4.703739
G1 X7.044061 Y4.701699
G1 X7.044094 Y4.699659
G1 X7.044128 Y4.697620
G1 X7.044161 Y4.695580
G1 X7.044195 Y4.693540
G1 X7.044228 Y4.691501
G1 X7.044262 Y4.689461
G1 X7.044295 Y4.687421
G1 X7.044329 Y4.685382
G1 X7.044362 Y4.683342
G1 X7.044395 Y4.681302
G1 X7.044429 Y4.679263
G1 X7.044462 Y4.677223
G1 X7.044496 Y4.675183
G1 X7.044529 Y4.673144
G1 X7.044563 Y4.671104
G1 X7.044596 Y4.669064
G1 X7.044630 Y4.667025
G1 X7.044663 Y4.664985
G1 X7.044697 Y4.662945
G1 X7.044730 Y4.660906
G1 X7.044764 Y4.658866
G1 X7.044797 Y4.656826
G1 X7.044831 Y4.654787
G1 X7.044864 Y4.652747
G1 X7.044898 Y4.650707
G1 X7.044931 Y4.648668
G1 X7.044964 Y4.646628
G1 X7.044998 Y4.644588
G1 X7.045031 Y4.642549
G1 X7.045065 Y4.640509
G1 X7.045098 Y4.638469
G1 X7.045132 Y4.636430
G1 X7.045165 Y4.634390
G1 X7.045199 Y4.632350
G1 X7.045232 Y4.630311
G1 X7.045266 Y4.628271
G1 X7.045299 Y4.626231
G1 X7.045333 Y4.624192
G1 X7.045366 Y4.622152
G1 X7.045400 Y4.620112
G1 X7.045433 Y4.618073
G1 X7.045466 Y4.616033
G1 X7.045500 Y4.613993
G1 X7.045534 Y4.611954
G1 X7.045567 Y4.609914
G1 X7.045600 Y4.607874
G1 X7.045634 Y4.605835
G1 X7.045667 Y4.603795
G1 X7.045701 Y4.601755
G1 X7.045734 Y4.599716
M3 S400

G0 X6.980898 Y4.623581
M3 S850
G1 X6.980898 Y4.623581
G1 X6.980833 Y4.625678
G1 X6.980768 Y4.627775
G1 X6.980704 Y4.629872
G1 X6.980639 Y4.631969
G1 X6.980574 Y4.634066
G1 X6.980509 Y4.636163
G1 X6.980445 Y4.638260
G1 X6.980380 Y4.640357
G1 X6.980315 Y4.642454
G1 X6.980250 Y4.644551
G1 X6.980185 Y4.646648
G1 X6.980121 Y4.648745
G1 X6.980056 Y4.650842
G1 X6.979991 Y4.652939
G1 X6.979926 Y4.655036
G1 X6.979862 Y4.657133
G1 X6.979797 Y4.659230
G1 X6.979732 Y4.661327
G1 X6.979667 Y4.663424
G1 X6.979602 Y4.665521
G1 X6.979537 Y4.667618
G1 X6.979473 Y4.669715
G1 X6.979408 Y4.671812
G1 X6.979343 Y4.673909
G1 X6.979279 Y4.676006
G1 X6.979214 Y4.678103
G1 X6.979149 Y4.680200
G1 X6.979084 Y4.682297
G1 X6.979019 Y4.684394
G1 X6.978954 Y4.686491
G1 X6.978890 Y4.688588
G1 X6.978825 Y4.690685
G1 X6.978760 Y4.692782
G1 X6.978696 Y4.694879
G1 X6.978631 Y4.696976
G1 X6.978566 Y4.699073
G1 X6.978501 Y4.701170
G1 X6.978436 Y4.703266
G1 X6.978371 Y4.705364
G1 X6.978307 Y4.707460
G1 X6.978242 Y4.709557
G1 X6.978177 Y4.711654
G1 X6.978112 Y4.713751
G1 X6.978048 Y4.715848
G1 X6.977983 Y4.717945
G1 X6.977918 Y4.720042
G1 X6.977853 Y4.722139
G1 X6.977788 Y4.724236
G1 X6.977724 Y4.726333
G1 X6.977659 Y4.728430
G1 X6.977594 Y4.730527
G1 X6.977529 Y4.732624
G1 X6.977464 Y4.734721
G1 X6.977400 Y4.736818
G1 X6.977335 Y4.738915
G1 X6.977270 Y4.741012
G1 X6.977205 Y4.743109
G1 X6.977141 Y4.745206
G1 X6.977076 Y4.747303
G1 X6.977011 Y4.749400
G1 X6.976946 Y4.751497
G1 X6.976881 Y4.753594
G1 X6.976816 Y4.755691
G1 X6.976752 Y4.757788
G1 X6.976687 Y4.759885
G1 X6.976622 Y4.761982
M3 S400

G0 X6.896850 Y4.497512
M3 S850
G1 X6.896850 Y4.497512
G1 X6.902547 Y4.493241
G1 X6.908245 Y4.488970
G1 X6.913943 Y4.484699
G1 X6.919640 Y4.480427
G1 X6.925338 Y4.476156
G1 X6.931036 Y4.471885
G1 X6.936733 Y4.467614
G1 X6.942431 Y4.463342
G1 X6.948129 Y4.459071
G1 X6.953827 Y4.454800
G1 X6.959524 Y4.450528
G1 X6.965222 Y4.446257
G1 X6.970920 Y4.441986
G1 X6.976617 Y4.437715
G1 X6.982315 Y4.433443
G1 X6.988013 Y4.429172
G1 X6.993710 Y4.424901
G1 X6.999408 Y4.420630
G1 X7.005106 Y4.416358
G1 X7.010804 Y4.412087
G1 X7.016501 Y4.407816
G1 X7.022199 Y4.403545
G1 X7.027897 Y4.399273
G1 X7.033594 Y4.395002
G1 X7.039292 Y4.390731
G1 X7.044990 Y4.386460
G1 X7.050687 Y4.382188
G1 X7.056385 Y4.377917
G1 X7.062083 Y4.373646
G1 X7.067781 Y4.369374
G1 X7.073478 Y4.365103
G1 X7.079176 Y4.360832
G1 X7.084874 Y4.356561
G1 X7.079640 Y4.357051
G1 X7.073994 Y4.357721
G1 X7.068348 Y4.358391
G1 X7.062702 Y4.359061
G1 X7.057056 Y4.359731
G1 X7.051410 Y4.360401
G1 X7.045763 Y4.361072
G1 X7.040117 Y4.361742
G1 X7.034471 Y4.362412
G1 X7.028825 Y4.363082
G1 X7.023179 Y4.363752
G1 X7.017533 Y4.364422
G1 X7.011886 Y4.365092
G1 X7.006240 Y4.365762
G1 X7.000594 Y4.366433
G1 X6.994948 Y4.367103
G1 X6.989302 Y4.367773
G1 X6.983655 Y4.368443
G1 X6.978009 Y4.369113
G1 X6.972363 Y4.369783
G1 X6.966717 Y4.370453
G1 X6.961071 Y4.371123
G1 X6.955425 Y4.371793
G1 X6.949778 Y4.372463
G1 X6.944132 Y4.373134
G1 X6.938486 Y4.373804
G1 X6.932840 Y4.374474
G1 X6.927194 Y4.375144
G1 X6.921548 Y4.375814
G1 X6.915901 Y4.376484
G1 X6.910255 Y4.377154
G1 X6.904609 Y4.377824
G1 X6.898963 Y4.378494
M3 S400

G0 X6.987250 Y4.428630
M3 S850
G1 X6.987250 Y4.428630
G1 X6.987250 Y4.427744
G1 X6.987250 Y4.426857
G1 X6.987250 Y4.425970
G1 X6.987250 Y4.425084
G1 X6.987250 Y4.424197
G1 X6.987250 Y4.423310
G1 X6.987250 Y4.422423
G1 X6.987250 Y4.421537
G1 X6.987250 Y4.420650
G1 X6.987250 Y4.419763
G1 X6.987250 Y4.418877
G1 X6.987250 Y4.417990
G1 X6.987250 Y4.417103
G1 X6.987250 Y4.416216
G1 X6.987250 Y4.415330
G1 X6.987250 Y4.414443
G1 X6.987250 Y4.413556
G1 X6.987250 Y4.412669
G1 X6.987250 Y4.411783
G1 X6.987250 Y4.410896
G1 X6.987250 Y4.410009
G1 X6.987250 Y4.409123
G1 X6.987250 Y4.408236
G1 X6.987250 Y4.407349
G1 X6.987250 Y4.406462
G1 X6.987250 Y4.405576
G1 X6.987250 Y4.404689
G1 X6.987250 Y4.403802
G1 X6.987250 Y4.402916
G1 X6.987250 Y4.402029
G1 X6.987250 Y4.401142
G1 X6.987250 Y4.400255
G1 X6.987250 Y4.399369
G1 X6.987250 Y4.398482
G1 X6.987250 Y4.397595
G1 X6.987250 Y4.396709
G1 X6.987250 Y4.395822
G1 X6.987250 Y4.394935
G1 X6.987250 Y4.394048
G1 X6.987250 Y4.393162
G1 X6.987250 Y4.392275
G1 X6.987250 Y4.391388
G1 X6.987250 Y4.390501
G1 X6.987250 Y4.389615
G1 X6.987250 Y4.388728
G1 X6.987250 Y4.387841
G1 X6.987250 Y4.386955
G1 X6.987250 Y4.386068
G1 X6.987250 Y4.385181
G1 X6.987250 Y4.384294
G1 X6.987250 Y4.383408
G1 X6.987250 Y4.382521
G1 X6.987250 Y4.381634
G1 X6.987250 Y4.380748
G1 X6.987250 Y4.379861
G1 X6.987250 Y4.378974
G1 X6.987250 Y4.378087
G1 X6.987250 Y4.377201
G1 X6.987250 Y4.376314
G1 X6.987250 Y4.375427
G1 X6.987250 Y4.374541
G1 X6.987250 Y4.373654
G1 X6.987250 Y4.372767
G1 X6.987250 Y4.371880
G1 X6.987250 Y4.370994
G1 X6.987250 Y4.370107
M3 S400

G0 X7.014065 Y4.285680
M3 S850
G1 X7.014065 Y4.285680
G1 X7.009113 Y4.288264
G1 X7.003193 Y4.291433
G1 X6.996574 Y4.294954
G1 X6.989528 Y4.298597
G1 X6.982560 Y4.302021
G1 X6.977337 Y4.304583
G1 X6.971171 Y4.307663
G1 X6.964385 Y4.311033
G1 X6.957300 Y4.314465
G1 X6.950239 Y4.317732
G1 X6.943523 Y4.320604
G1 X6.937476 Y4.322855
G1 X6.931428 Y4.324526
G1 X6.924298 Y4.326120
G1 X6.918453 Y4.326915
G1 X6.913554 Y4.326692
G1 X6.909260 Y4.325233
G1 X6.905538 Y4.322238
G1 X6.903177 Y4.317985
G1 X6.901645 Y4.312840
G1 X6.900313 Y4.307136
G1 X6.898871 Y4.301636
G1 X6.897571 Y4.295713
G1 X6.896444 Y4.289334
G1 X6.895595 Y4.283021
G1 X6.895130 Y4.277296
G1 X6.895007 Y4.271229
G1 X6.894831 Y4.266495
G1 X6.896663 Y4.261060
G1 X6.900264 Y4.255111
G1 X6.905358 Y4.249019
G1 X6.911356 Y4.242838
G1 X6.917352 Y4.237215
G1 X6.922998 Y4.232353
G1 X6.929649 Y4.227625
G1 X6.935468 Y4.224290
G1 X6.941298 Y4.220989
G1 X6.946514 Y4.218096
G1 X6.953737 Y4.214646
G1 X6.959226 Y4.212317
G1 X6.965757 Y4.209743
G1 X6.972715 Y4.207067
G1 X6.979487 Y4.204434
G1 X6.986026 Y4.201857
G1 X6.995111 Y4.198522
G1 X7.003328 Y4.195296
G1 X7.009643 Y4.192706
G1 X7.013026 Y4.191275
G1 X7.012516 Y4.191517
G1 X7.008313 Y4.193433
G1 X7.001550 Y4.196491
G1 X6.993387 Y4.200139
G1 X6.984981 Y4.203827
G1 X6.977494 Y4.207002
G1 X6.970795 Y4.209627
G1 X6.964056 Y4.212049
G1 X6.957877 Y4.214116
G1 X6.951980 Y4.216012
G1 X6.946032 Y4.217939
G1 X6.939411 Y4.220170
G1 X6.932966 Y4.222332
G1 X6.926799 Y4.224257
G1 X6.920960 Y4.225802
G1 X6.914256 Y4.227711
G1 X6.907212 Y4.229801
G1 X6.901183 Y4.231235
M3 S400

G0 X7.112091 Y4.040852
M3 S850
G1 X7.112091 Y4.040852
G1 X7.109512 Y4.041944
G1 X7.106769 Y4.043115
G1 X7.103874 Y4.044361
G1 X7.100845 Y4.045675
G1 X7.097695 Y4.047052
G1 X7.094439 Y4.048486
G1 X7.091093 Y4.049971
G1 X7.087671 Y4.051502
G1 X7.084187 Y4.053072
G1 X7.080657 Y4.054677
G1 X7.077096 Y4.056309
G1 X7.073518 Y4.057965
G1 X7.069938 Y4.059637
G1 X7.066371 Y4.061320
G1 X7.062832 Y4.063008
G1 X7.059876 Y4.064431
G1 X7.057092 Y4.065772
G1 X7.054117 Y4.067203
G1 X7.050974 Y4.068712
G1 X7.047686 Y4.070290
G1 X7.044275 Y4.071924
G1 X7.040761 Y4.073605
G1 X7.037167 Y4.075321
G1 X7.033517 Y4.077061
G1 X7.029830 Y4.078814
G1 X7.026130 Y4.080569
G1 X7.022438 Y4.082315
G1 X7.018777 Y4.084042
G1 X7.015168 Y4.085738
G1 X7.011634 Y4.087393
G1 X7.008196 Y4.088994
G1 X7.004877 Y4.090533
G1 X7.001698 Y4.091997
G1 X6.998682 Y4.093375
G1 X6.995851 Y4.094657
G1 X6.993227 Y4.095832
G1 X6.989538 Y4.097453
G1 X6.984972 Y4.099415
G1 X6.981023 Y4.101063
G1 X6.977573 Y4.102462
G1 X6.974506 Y4.103674
G1 X6.971706 Y4.104764
G1 X6.969055 Y4.105795
G1 X6.966437 Y4.106829
G1 X6.963735 Y4.107930
G1 X6.960833 Y4.109162
G1 X6.957396 Y4.110661
G1 X6.953970 Y4.112166
G1 X6.950603 Y4.113658
G1 X6.947291 Y4.115148
G1 X6.944028 Y4.116641
G1 X6.940808 Y4.118148
G1 X6.937624 Y4.119675
G1 X6.934471 Y4.121231
G1 X6.931741 Y4.122607
G1 X6.929062 Y4.123902
G1 X6.925947 Y4.125357
G1 X6.922492 Y4.126936
G1 X6.918798 Y4.128598
G1 X6.914959 Y4.130306
G1 X6.911074 Y4.132022
G1 X6.907241 Y4.133706
G1 X6.903557 Y4.135322
G1 X6.900119 Y4.136829
G1 X6.897024 Y4.138190
G1 X6.894371 Y4.139367
M3 S400

G0 X7.011132 Y4.133254
M3 S850
G1 X7.011132 Y4.133254
G1 X7.011590 Y4.131299
G1 X7.012039 Y4.129373
G1 X7.012480 Y4.127476
G1 X7.012913 Y4.125604
G1 X7.013339 Y4.123757
G1 X7.013759 Y4.121932
G1 X7.014173 Y4.120126
G1 X7.014581 Y4.118339
G1 X7.014984 Y4.116568
G1 X7.015382 Y4.114811
G1 X7.015777 Y4.113066
G1 X7.016169 Y4.111332
G1 X7.016557 Y4.109606
G1 X7.016943 Y4.107886
G1 X7.017327 Y4.106171
G1 X7.017710 Y4.104458
G1 X7.018092 Y4.102746
G1 X7.018474 Y4.101032
G1 X7.018856 Y4.099315
G1 X7.019239 Y4.097592
G1 X7.019623 Y4.095862
G1 X7.020009 Y4.094122
G1 X7.020397 Y4.092371
G1 X7.020788 Y4.090608
G1 X7.021182 Y4.088828
G1 X7.021549 Y4.087203
G1 X7.021942 Y4.085529
G1 X7.022365 Y4.083787
G1 X7.022815 Y4.081982
G1 X7.023290 Y4.080123
G1 X7.023789 Y4.078216
G1 X7.024308 Y4.076268
G1 X7.024846 Y4.074286
G1 X7.025399 Y4.072276
G1 X7.025966 Y4.070247
G1 X7.026545 Y4.068204
G1 X7.027133 Y4.066154
G1 X7.027727 Y4.064104
G1 X7.028326 Y4.062062
G1 X7.028926 Y4.060034
G1 X7.029527 Y4.058027
G1 X7.030125 Y4.056048
G1 X7.030718 Y4.054104
G1 X7.031304 Y4.052202
G1 X7.031881 Y4.050348
G1 X7.032446 Y4.048549
G1 X7.032997 Y4.046813
G1 X7.033531 Y4.045147
G1 X7.034046 Y4.043556
G1 X7.034541 Y4.042049
G1 X7.035012 Y4.040631
G1 X7.035457 Y4.039311
G1 X7.035874 Y4.038094
G1 X7.036364 Y4.036695
G1 X7.037195 Y4.034325
G1 X7.038009 Y4.031998
G1 X7.038802 Y4.029728
G1 X7.039570 Y4.027531
G1 X7.040309 Y4.025425
G1 X7.041016 Y4.023424
G1 X7.041686 Y4.021546
G1 X7.042316 Y4.019806
G1 X7.042901 Y4.018221
G1 X7.043439 Y4.016807
G1 X7.043924 Y4.015579
G1 X7.044353 Y4.014555
M3 S400

G0 X7.006159 Y3.910419
M3 S850
G1 X7.006159 Y3.910419
G1 X7.006011 Y3.913916
G1 X7.005758 Y3.919089
G1 X7.005354 Y3.925458
G1 X7.004754 Y3.932540
G1 X7.003912 Y3.939856
G1 X7.002785 Y3.946924
G1 X7.001326 Y3.953263
G1 X6.999491 Y3.958391
G1 X6.996426 Y3.963407
G1 X6.992966 Y3.969275
G1 X6.989712 Y3.975243
G1 X6.985692 Y3.982248
G1 X6.981401 Y3.988223
G1 X6.977021 Y3.992970
G1 X6.972299 Y3.997256
G1 X6.966962 Y4.001725
G1 X6.961595 Y4.005464
G1 X6.956164 Y4.008620
G1 X6.950318 Y4.011741
G1 X6.943796 Y4.015105
G1 X6.938017 Y4.017592
G1 X6.932731 Y4.019392
G1 X6.927468 Y4.020809
G1 X6.922086 Y4.021510
G1 X6.916809 Y4.021393
G1 X6.911965 Y4.020491
G1 X6.907587 Y4.018758
G1 X6.903749 Y4.016234
G1 X6.900543 Y4.012994
G1 X6.898026 Y4.009064
G1 X6.896285 Y4.004508
G1 X6.895239 Y3.999379
G1 X6.894774 Y3.993837
G1 X6.894881 Y3.988243
G1 X6.895551 Y3.982259
G1 X6.896784 Y3.975940
G1 X6.898518 Y3.969639
G1 X6.900846 Y3.962976
G1 X6.903565 Y3.956340
G1 X6.906392 Y3.950404
G1 X6.909881 Y3.944180
G1 X6.913416 Y3.939154
G1 X6.918366 Y3.934229
G1 X6.923073 Y3.930628
G1 X6.928557 Y3.927234
G1 X6.934846 Y3.923860
G1 X6.940773 Y3.920922
G1 X6.946292 Y3.918386
G1 X6.952277 Y3.915857
G1 X6.958393 Y3.913542
G1 X6.964310 Y3.911643
G1 X6.969695 Y3.910367
G1 X6.975456 Y3.909497
G1 X6.981008 Y3.908972
G1 X6.985991 Y3.909136
G1 X6.990210 Y3.910319
G1 X6.993086 Y3.912362
G1 X6.994711 Y3.913519
G1 X6.996533 Y3.914698
G1 X6.998423 Y3.916185
G1 X7.000253 Y3.918266
G1 X7.001892 Y3.921228
G1 X7.003214 Y3.925358
G1 X7.004090 Y3.930941
G1 X7.004390 Y3.938266
G1 X7.003986 Y3.947619
M3 S400

G0 X7.118087 Y3.725444
M3 S850
G1 X7.118087 Y3.725444
G1 X7.111607 Y3.728271
G1 X7.105102 Y3.730967
G1 X7.098580 Y3.733539
G1 X7.092052 Y3.735995
G1 X7.085526 Y3.738342
G1 X7.079011 Y3.740587
G1 X7.072517 Y3.742737
G1 X7.066053 Y3.744800
G1 X7.059628 Y3.746783
G1 X7.053250 Y3.748693
G1 X7.046930 Y3.750538
G1 X7.040676 Y3.752324
G1 X7.034498 Y3.754059
G1 X7.028404 Y3.755750
G1 X7.022405 Y3.757405
G1 X7.016508 Y3.759031
G1 X7.010723 Y3.760634
G1 X7.005060 Y3.762223
G1 X6.999527 Y3.763804
G1 X6.994134 Y3.765385
G1 X6.988889 Y3.766973
G1 X6.983803 Y3.768575
G1 X6.978883 Y3.770199
G1 X6.974139 Y3.771852
G1 X6.969581 Y3.773541
G1 X6.965218 Y3.775273
G1 X6.961058 Y3.777055
G1 X6.957111 Y3.778896
G1 X6.953000 Y3.780920
G1 X6.947308 Y3.783625
G1 X6.941767 Y3.786517
G1 X6.936407 Y3.789592
G1 X6.931262 Y3.792842
G1 X6.926361 Y3.796262
G1 X6.921736 Y3.799844
G1 X6.917420 Y3.803583
G1 X6.913442 Y3.807474
G1 X6.909835 Y3.811508
G1 X6.906630 Y3.815680
G1 X6.903859 Y3.819984
G1 X6.901551 Y3.824414
G1 X6.899741 Y3.828963
G1 X6.898457 Y3.833626
G1 X6.897733 Y3.838395
G1 X6.897598 Y3.843264
G1 X6.898086 Y3.848228
G1 X6.899227 Y3.853280
G1 X6.900918 Y3.858392
G1 X6.902596 Y3.862850
G1 X6.904788 Y3.866369
G1 X6.907454 Y3.869014
G1 X6.910555 Y3.870850
G1 X6.914051 Y3.871943
G1 X6.917901 Y3.872358
G1 X6.922067 Y3.872160
G1 X6.926507 Y3.871415
G1 X6.931183 Y3.870189
G1 X6.936053 Y3.868546
G1 X6.941079 Y3.866553
G1 X6.946220 Y3.864274
G1 X6.951437 Y3.861775
G1 X6.956689 Y3.859122
G1 X6.961937 Y3.856379
G1 X6.967141 Y3.853612
G1 X6.972261 Y3.850888
G1 X6.977257 Y3.848270
M3 S400

G0 X7.120040 Y3.791563
M3 S850
G1 X7.120040 Y3.791563
G1 X7.120097 Y3.789757
G1 X7.120153 Y3.787951
G1 X7.120210 Y3.786146
G1 X7.120266 Y3.784340
G1 X7.120322 Y3.782534
G1 X7.120379 Y3.780729
G1 X7.120435 Y3.778923
G1 X7.120492 Y3.777117
G1 X7.120548 Y3.775312
G1 X7.120605 Y3.773506
G1 X7.120662 Y3.771700
G1 X7.120718 Y3.769894
G1 X7.120775 Y3.768089
G1 X7.120831 Y3.766283
G1 X7.120888 Y3.764477
G1 X7.120944 Y3.762672
G1 X7.121001 Y3.760866
G1 X7.121057 Y3.759060
G1 X7.121114 Y3.757255
G1 X7.121170 Y3.755449
G1 X7.121227 Y3.753643
G1 X7.121283 Y3.751838
G1 X7.121340 Y3.750032
G1 X7.121396 Y3.748226
G1 X7.121453 Y3.746421
G1 X7.121509 Y3.744615
G1 X7.121566 Y3.742809
G1 X7.121622 Y3.741004
G1 X7.121679 Y3.739198
G1 X7.121735 Y3.737392
G1 X7.121792 Y3.735586
G1 X7.121848 Y3.733781
G1 X7.121905 Y3.731975
G1 X7.121961 Y3.730169
G1 X7.122018 Y3.728364
G1 X7.122075 Y3.726558
G1 X7.122131 Y3.724752
G1 X7.122188 Y3.722947
G1 X7.122244 Y3.721141
G1 X7.122301 Y3.719335
G1 X7.122357 Y3.717530
G1 X7.122414 Y3.715724
G1 X7.122470 Y3.713918
G1 X7.122527 Y3.712113
G1 X7.122583 Y3.710307
G1 X7.122640 Y3.708501
G1 X7.122696 Y3.706696
G1 X7.122753 Y3.704890
G1 X7.122809 Y3.703084
G1 X7.122866 Y3.701279
G1 X7.122922 Y3.699473
G1 X7.122979 Y3.697667
G1 X7.123035 Y3.695861
G1 X7.123092 Y3.694056
G1 X7.123148 Y3.692250
G1 X7.123205 Y3.690444
G1 X7.123261 Y3.688639
G1 X7.123318 Y3.686833
G1 X7.123375 Y3.685027
G1 X7.123431 Y3.683222
G1 X7.123488 Y3.681416
G1 X7.123544 Y3.679610
G1 X7.123601 Y3.677805
G1 X7.123657 Y3.675999
G1 X7.123714 Y3.674193
G1 X7.123770 Y3.672388
M3 S400

G0 X7.006159 Y3.610419
M3 S850
G1 X7.006159 Y3.610419
G1 X7.006011 Y3.613916
G1 X7.005758 Y3.619089
G1 X7.005354 Y3.625458
G1 X7.004754 Y3.632540
G1 X7.003912 Y3.639856
G1 X7.002785 Y3.646924
G1 X7.001326 Y3.653263
G1 X6.999491 Y3.658391
G1 X6.996426 Y3.663407
G1 X6.992966 Y3.669275
G1 X6.989712 Y3.675243
G1 X6.985692 Y3.682248
G1 X6.981401 Y3.688223
G1 X6.977021 Y3.692970
G1 X6.972299 Y3.697256
G1 X6.966962 Y3.701725
G1 X6.961595 Y3.705464
G1 X6.956164 Y3.708620
G1 X6.950318 Y3.711741
G1 X6.943796 Y3.715105
G1 X6.938017 Y3.717592
G1 X6.932731 Y3.719392
G1 X6.927468 Y3.720809
G1 X6.922086 Y3.721510
G1 X6.916809 Y3.721393
G1 X6.911965 Y3.720491
G1 X6.907587 Y3.718758
G1 X6.903749 Y3.716234
G1 X6.900543 Y3.712994
G1 X6.898026 Y3.709064
G1 X6.896285 Y3.704508
G1 X6.895239 Y3.699379
G1 X6.894774 Y3.693837
G1 X6.894881 Y3.688243
G1 X6.895551 Y3.682259
G1 X6.896784 Y3.675940
G1 X6.898518 Y3.669639
G1 X6.900846 Y3.662976
G1 X6.903565 Y3.656340
G1 X6.906392 Y3.650404
G1 X6.909881 Y3.644180
G1 X6.913416 Y3.639154
G1 X6.918366 Y3.634229
G1 X6.923073 Y3.630628
G1 X6.928557 Y3.627234
G1 X6.934846 Y3.623860
G1 X6.940773 Y3.620922
G1 X6.946292 Y3.618386
G1 X6.952277 Y3.615857
G1 X6.958393 Y3.613542
G1 X6.964310 Y3.611643
G1 X6.969695 Y3.610367
G1 X6.975456 Y3.609497
G1 X6.981008 Y3.608972
G1 X6.985991 Y3.609136
G1 X6.990210 Y3.610319
G1 X6.993086 Y3.612362
G1 X6.994711 Y3.613519
G1 X6.996533 Y3.614698
G1 X6.998423 Y3.616185
G1 X7.000253 Y3.618266
G1 X7.001892 Y3.621228
G1 X7.003214 Y3.625358
G1 X7.004090 Y3.630941
G1 X7.004390 Y3.638266
G1 X7.003986 Y3.647619
M3 S400

G0 X7.112091 Y3.440852
M3 S850
G1 X7.112091 Y3.440852
G1 X7.109512 Y3.441944
G1 X7.106769 Y3.443115
G1 X7.103874 Y3.444361
G1 X7.100845 Y3.445675
G1 X7.097695 Y3.447052
G1 X7.094439 Y3.448486
G1 X7.091093 Y3.449971
G1 X7.087671 Y3.451502
G1 X7.084187 Y3.453072
G1 X7.080657 Y3.454677
G1 X7.077096 Y3.456309
G1 X7.073518 Y3.457965
G1 X7.069938 Y3.459637
G1 X7.066371 Y3.461320
G1 X7.062832 Y3.463008
G1 X7.059876 Y3.464431
G1 X7.057092 Y3.465772
G1 X7.054117 Y3.467203
G1 X7.050974 Y3.468712
G1 X7.047686 Y3.470290
G1 X7.044275 Y3.471924
G1 X7.040761 Y3.473605
G1 X7.037167 Y3.475321
G1 X7.033517 Y3.477061
G1 X7.029830 Y3.478814
G1 X7.026130 Y3.480569
G1 X7.022438 Y3.482315
G1 X7.018777 Y3.484042
G1 X7.015168 Y3.485738
G1 X7.011634 Y3.487393
G1 X7.008196 Y3.488994
G1 X7.004877 Y3.490533
G1 X7.001698 Y3.491997
G1 X6.998682 Y3.493375
G1 X6.995851 Y3.494657
G1 X6.993227 Y3.495832
G1 X6.989538 Y3.497453
G1 X6.984972 Y3.499415
G1 X6.981023 Y3.501063
G1 X6.977573 Y3.502462
G1 X6.974506 Y3.503674
G1 X6.971706 Y3.504764
G1 X6.969055 Y3.505795
G1 X6.966437 Y3.506829
G1 X6.963735 Y3.507930
G1 X6.960833 Y3.509162
G1 X6.957396 Y3.510661
G1 X6.953970 Y3.512166
G1 X6.950603 Y3.513658
G1 X6.947291 Y3.515148
G1 X6.944028 Y3.516641
G1 X6.940808 Y3.518148
G1 X6.937624 Y3.519675
G1 X6.934471 Y3.521231
G1 X6.931741 Y3.522607
G1 X6.929062 Y3.523902
G1 X6.925947 Y3.525357
G1 X6.922492 Y3.526936
G1 X6.918798 Y3.528598
G1 X6.914959 Y3.530306
G1 X6.911074 Y3.532022
G1 X6.907241 Y3.533706
G1 X6.903557 Y3.535322
G1 X6.900119 Y3.536829
G1 X6.897024 Y3.538190
G1 X6.894371 Y3.539367
M3 S400

G0 X7.011132 Y3.533254
M3 S850
G1 X7.011132 Y3.533254
G1 X7.011590 Y3.531299
G1 X7.012039 Y3.529373
G1 X7.012480 Y3.527476
G1 X7.012913 Y3.525604
G1 X7.013339 Y3.523757
G1 X7.013759 Y3.521932
G1 X7.014173 Y3.520126
G1 X7.014581 Y3.518339
G1 X7.014984 Y3.516568
G1 X7.015382 Y3.514811
G1 X7.015777 Y3.513066
G1 X7.016169 Y3.511332
G1 X7.016557 Y3.509606
G1 X7.016943 Y3.507886
G1 X7.017327 Y3.506171
G1 X7.017710 Y3.504458
G1 X7.018092 Y3.502746
G1 X7.018474 Y3.501032
G1 X7.018856 Y3.499315
G1 X7.019239 Y3.497592
G1 X7.019623 Y3.495862
G1 X7.020009 Y3.494122
G1 X7.020397 Y3.492371
G1 X7.020788 Y3.490608
G1 X7.021182 Y3.488828
G1 X7.021549 Y3.487203
G1 X7.021942 Y3.485529
G1 X7.022365 Y3.483787
G1 X7.022815 Y3.481982
G1 X7.023290 Y3.480123
G1 X7.023789 Y3.478216
G1 X7.024308 Y3.476268
G1 X7.024846 Y3.474286
G1 X7.025399 Y3.472276
G1 X7.025966 Y3.470247
G1 X7.026545 Y3.468204
G1 X7.027133 Y3.466154
G1 X7.027727 Y3.464104
G1 X7.028326 Y3.462062
G1 X7.028926 Y3.460034
G1 X7.029527 Y3.458027
G1 X7.030125 Y3.456048
G1 X7.030718 Y3.454104
G1 X7.031304 Y3.452202
G1 X7.031881 Y3.450348
G1 X7.032446 Y3.448549
G1 X7.032997 Y3.446813
G1 X7.033531 Y3.445147
G1 X7.034046 Y3.443556
G1 X7.034541 Y3.442049
G1 X7.035012 Y3.440631
G1 X7.035457 Y3.439311
G1 X7.035874 Y3.438094
G1 X7.036364 Y3.436695
G1 X7.037195 Y3.434325
G1 X7.038009 Y3.431998
G1 X7.038802 Y3.429728
G1 X7.039570 Y3.427531
G1 X7.040309 Y3.425425
G1 X7.041016 Y3.423424
G1 X7.041686 Y3.421546
G1 X7.042316 Y3.419806
G1 X7.042901 Y3.418221
G1 X7.043439 Y3.416807
G1 X7.043924 Y3.415579
G1 X7.044353 Y3.414555
M3 S400

G0 X7.112091 Y3.290852
M3 S850
G1 X7.112091 Y3.290852
G1 X7.109512 Y3.291944
G1 X7.106769 Y3.293115
G1 X7.103874 Y3.294361
G1 X7.100845 Y3.295675
G1 X7.097695 Y3.297052
G1 X7.094439 Y3.298486
G1 X7.091093 Y3.299971
G1 X7.087671 Y3.301502
G1 X7.084187 Y3.303072
G1 X7.080657 Y3.304677
G1 X7.077096 Y3.306309
G1 X7.073518 Y3.307965
G1 X7.069938 Y3.309637
G1 X7.066371 Y3.311320
G1 X7.062832 Y3.313008
G1 X7.059876 Y3.314431
G1 X7.057092 Y3.315772
G1 X7.054117 Y3.317203
G1 X7.050974 Y3.318712
G1 X7.047686 Y3.320290
G1 X7.044275 Y3.321924
G1 X7.040761 Y3.323605
G1 X7.037167 Y3.325321
G1 X7.033517 Y3.327061
G1 X7.029830 Y3.328814
G1 X7.026130 Y3.330569
G1 X7.022438 Y3.332315
G1 X7.018777 Y3.334042
G1 X7.015168 Y3.335738
G1 X7.011634 Y3.337393
G1 X7.008196 Y3.338994
G1 X7.004877 Y3.340533
G1 X7.001698 Y3.341997
G1 X6.998682 Y3.343375
G1 X6.995851 Y3.344657
G1 X6.993227 Y3.345832
G1 X6.989538 Y3.347453
G1 X6.984972 Y3.349415
G1 X6.981023 Y3.351063
G1 X6.977573 Y3.352462
G1 X6.974506 Y3.353674
G1 X6.971706 Y3.354764
G1 X6.969055 Y3.355795
G1 X6.966437 Y3.356829
G1 X6.963735 Y3.357930
G1 X6.960833 Y3.359162
G1 X6.957396 Y3.360661
G1 X6.953970 Y3.362166
G1 X6.950603 Y3.363658
G1 X6.947291 Y3.365148
G1 X6.944028 Y3.366641
G1 X6.940808 Y3.368148
G1 X6.937624 Y3.369675
G1 X6.934471 Y3.371231
G1 X6.931741 Y3.372607
G1 X6.929062 Y3.373902
G1 X6.925947 Y3.375357
G1 X6.922492 Y3.376936
G1 X6.918798 Y3.378598
G1 X6.914959 Y3.380306
G1 X6.911074 Y3.382022
G1 X6.907241 Y3.383706
G1 X6.903557 Y3.385322
G1 X6.900119 Y3.386829
G1 X6.897024 Y3.388190
G1 X6.894371 Y3.389367
M3 S400

G0 X7.011132 Y3.383254
M3 S850
G1 X7.011132 Y3.383254
G1 X7.011590 Y3.381299
G1 X7.012039 Y3.379373
G1 X7.012480 Y3.377476
G1 X7.012913 Y3.375604
G1 X7.013339 Y3.373757
G1 X7.013759 Y3.371932
G1 X7.014173 Y3.370126
G1 X7.014581 Y3.368339
G1 X7.014984 Y3.366568
G1 X7.015382 Y3.364811
G1 X7.015777 Y3.363066
G1 X7.016169 Y3.361332
G1 X7.016557 Y3.359606
G1 X7.016943 Y3.357886
G1 X7.017327 Y3.356171
G1 X7.017710 Y3.354458
G1 X7.018092 Y3.352746
G1 X7.018474 Y3.351032
G1 X7.018856 Y3.349315
G1 X7.019239 Y3.347592
G1 X7.019623 Y3.345862
G1 X7.020009 Y3.344122
G1 X7.020397 Y3.342371
G1 X7.020788 Y3.340608
G1 X7.021182 Y3.338828
G1 X7.021549 Y3.337203
G1 X7.021942 Y3.335529
G1 X7.022365 Y3.333787
G1 X7.022815 Y3.331982
G1 X7.023290 Y3.330123
G1 X7.023789 Y3.328216
G1 X7.024308 Y3.326268
G1 X7.024846 Y3.324286
G1 X7.025399 Y3.322276
G1 X7.025966 Y3.320247
G1 X7.026545 Y3.318204
G1 X7.027133 Y3.316154
G1 X7.027727 Y3.314104
G1 X7.028326 Y3.312062
G1 X7.028926 Y3.310034
G1 X7.029527 Y3.308027
G1 X7.030125 Y3.306048
G1 X7.030718 Y3.304104
G1 X7.031304 Y3.302202
G1 X7.031881 Y3.300348
G1 X7.032446 Y3.298549
G1 X7.032997 Y3.296813
G1 X7.033531 Y3.295147
G1 X7.034046 Y3.293556
G1 X7.034541 Y3.292049
G1 X7.035012 Y3.290631
G1 X7.035457 Y3.289311
G1 X7.035874 Y3.288094
G1 X7.036364 Y3.286695
G1 X7.037195 Y3.284325
G1 X7.038009 Y3.281998
G1 X7.038802 Y3.279728
G1 X7.039570 Y3.277531
G1 X7.040309 Y3.275425
G1 X7.041016 Y3.273424
G1 X7.041686 Y3.271546
G1 X7.042316 Y3.269806
G1 X7.042901 Y3.268221
G1 X7.043439 Y3.266807
G1 X7.043924 Y3.265579
G1 X7.044353 Y3.264555
M3 S400

G0 X6.952461 Y3.261538
M3 S850
G1 X6.952461 Y3.261538
G1 X6.952295 Y3.255055
G1 X6.952054 Y3.248567
G1 X6.951785 Y3.242451
G1 X6.951380 Y3.236198
G1 X6.950819 Y3.230384
G1 X6.950786 Y3.224104
G1 X6.951501 Y3.217478
G1 X6.952706 Y3.210431
G1 X6.954181 Y3.203693
G1 X6.956254 Y3.196737
G1 X6.958528 Y3.189991
G1 X6.960246 Y3.183244
G1 X6.961395 Y3.176386
G1 X6.963282 Y3.169633
G1 X6.967148 Y3.163249
G1 X6.972280 Y3.157732
G1 X6.978289 Y3.153680
G1 X6.984126 Y3.151884
G1 X6.989814 Y3.152019
G1 X6.995237 Y3.153129
G1 X7.000347 Y3.154749
G1 X7.005140 Y3.157242
G1 X7.009124 Y3.160212
G1 X7.012575 Y3.164003
G1 X7.014741 Y3.168444
G1 X7.015914 Y3.173989
G1 X7.016240 Y3.180144
G1 X7.015637 Y3.187025
G1 X7.014011 Y3.193826
G1 X7.011454 Y3.200809
G1 X7.008204 Y3.207858
G1 X7.004484 Y3.214664
G1 X7.000234 Y3.221187
G1 X6.995508 Y3.227588
G1 X6.990502 Y3.233891
G1 X6.985204 Y3.240137
G1 X6.979637 Y3.246210
G1 X6.974247 Y3.251491
G1 X6.968215 Y3.256535
G1 X6.962465 Y3.260482
G1 X6.956148 Y3.264235
G1 X6.950222 Y3.267554
G1 X6.943821 Y3.270642
G1 X6.937084 Y3.273017
G1 X6.930992 Y3.274240
G1 X6.924638 Y3.274830
G1 X6.918505 Y3.274756
G1 X6.913301 Y3.273926
G1 X6.908721 Y3.271617
G1 X6.905948 Y3.267857
G1 X6.903597 Y3.263563
G1 X6.900448 Y3.259532
G1 X6.897265 Y3.255155
G1 X6.895194 Y3.250386
G1 X6.894896 Y3.244219
G1 X6.895693 Y3.237841
G1 X6.896164 Y3.231531
G1 X6.896669 Y3.225118
G1 X6.897507 Y3.217874
G1 X6.898441 Y3.211265
G1 X6.899713 Y3.204752
G1 X6.901917 Y3.197435
G1 X6.905060 Y3.189810
G1 X6.908974 Y3.181990
G1 X6.912830 Y3.175724
G1 X6.916369 Y3.172066
M3 S400

G0 X7.016735 Y3.084651
M3 S850
G1 X7.016735 Y3.084651
G1 X7.015268 Y3.084371
G1 X7.013712 Y3.084544
G1 X7.012066 Y3.085077
G1 X7.010327 Y3.085880
G1 X7.008492 Y3.086860
G1 X7.006558 Y3.087928
G1 X7.004524 Y3.088989
G1 X7.002419 Y3.089942
G1 X7.000688 Y3.090676
G1 X6.998886 Y3.091473
G1 X6.997019 Y3.092323
G1 X6.995092 Y3.093216
G1 X6.993109 Y3.094144
G1 X6.991075 Y3.095098
G1 X6.988994 Y3.096067
G1 X6.986873 Y3.097043
G1 X6.984714 Y3.098015
G1 X6.982523 Y3.098976
G1 X6.980630 Y3.099782
G1 X6.978791 Y3.100546
G1 X6.976930 Y3.101304
G1 X6.975043 Y3.102062
G1 X6.973128 Y3.102823
G1 X6.971183 Y3.103591
G1 X6.969206 Y3.104369
G1 X6.967194 Y3.105163
G1 X6.965145 Y3.105976
G1 X6.963056 Y3.106811
G1 X6.960924 Y3.107674
G1 X6.958748 Y3.108568
G1 X6.956701 Y3.109423
G1 X6.954893 Y3.110188
G1 X6.952925 Y3.111028
G1 X6.950823 Y3.111932
G1 X6.948616 Y3.112885
G1 X6.946333 Y3.113876
G1 X6.944000 Y3.114891
G1 X6.941648 Y3.115918
G1 X6.939304 Y3.116944
G1 X6.936996 Y3.117956
G1 X6.934752 Y3.118942
G1 X6.932601 Y3.119888
G1 X6.930571 Y3.120783
G1 X6.928690 Y3.121613
G1 X6.926985 Y3.122366
G1 X6.925487 Y3.123028
G1 X6.924221 Y3.123588
G1 X6.923195 Y3.124042
G1 X6.921914 Y3.124613
G1 X6.920267 Y3.125350
G1 X6.918304 Y3.126230
G1 X6.916077 Y3.127231
G1 X6.913635 Y3.128328
G1 X6.911031 Y3.129500
G1 X6.908315 Y3.130723
G1 X6.905538 Y3.131973
G1 X6.902750 Y3.133229
G1 X6.900004 Y3.134467
G1 X6.897349 Y3.135663
G1 X6.894838 Y3.136796
G1 X6.892520 Y3.137841
G1 X6.890446 Y3.138777
G1 X6.888668 Y3.139578
G1 X6.887237 Y3.140224
G1 X6.886203 Y3.140691
G1 X6.885618 Y3.140955
M3 S400

G0 X6.967632 Y3.104600
M3 S850
G1 X6.967632 Y3.104600
G1 X6.968618 Y3.103601
G1 X6.969914 Y3.102360
G1 X6.971479 Y3.100907
G1 X6.973270 Y3.099271
G1 X6.975244 Y3.097483
G1 X6.977358 Y3.095574
G1 X6.979572 Y3.093572
G1 X6.981841 Y3.091509
G1 X6.984125 Y3.089414
G1 X6.986379 Y3.087318
G1 X6.988563 Y3.085251
G1 X6.990633 Y3.083243
G1 X6.992548 Y3.081324
G1 X6.994264 Y3.079525
G1 X6.995739 Y3.077875
G1 X6.996932 Y3.076405
G1 X6.997770 Y3.075202
G1 X6.998526 Y3.074112
G1 X6.999474 Y3.072811
G1 X7.000594 Y3.071318
G1 X7.001863 Y3.069650
G1 X7.003262 Y3.067826
G1 X7.004769 Y3.065863
G1 X7.006363 Y3.063779
G1 X7.008023 Y3.061593
G1 X7.009729 Y3.059322
G1 X7.011460 Y3.056983
G1 X7.013194 Y3.054595
G1 X7.014910 Y3.052176
G1 X7.016588 Y3.049744
G1 X7.018207 Y3.047316
G1 X7.019745 Y3.044910
G1 X7.021182 Y3.042545
G1 X7.022497 Y3.040237
G1 X7.023669 Y3.038006
G1 X7.024677 Y3.035869
G1 X7.025499 Y3.033843
G1 X7.026116 Y3.031948
G1 X7.026550 Y3.029975
G1 X7.026836 Y3.027661
G1 X7.026893 Y3.025482
G1 X7.026743 Y3.023433
G1 X7.026412 Y3.021510
G1 X7.025920 Y3.019707
G1 X7.025292 Y3.018021
G1 X7.024550 Y3.016446
G1 X7.023719 Y3.014977
G1 X7.022820 Y3.013610
G1 X7.021877 Y3.012341
G1 X7.020914 Y3.011163
G1 X7.019953 Y3.010073
G1 X7.019017 Y3.009066
G1 X7.018131 Y3.008137
G1 X7.017316 Y3.007282
G1 X7.015812 Y3.005818
G1 X7.014186 Y3.004653
G1 X7.012665 Y3.003919
G1 X7.011239 Y3.003479
G1 X7.009899 Y3.003197
G1 X7.008635 Y3.002937
G1 X7.007400 Y3.002562
G1 X7.005772 Y3.002270
G1 X7.003832 Y3.002214
G1 X7.001743 Y3.002352
G1 X6.999668 Y3.002638
G1 X6.997770 Y3.003029
M3 S400

G0 X7.085097 Y2.721356
M3 S850
G1 X7.085097 Y2.721356
G1 X7.082797 Y2.722755
G1 X7.080497 Y2.724155
G1 X7.078197 Y2.725554
G1 X7.075897 Y2.726954
G1 X7.073597 Y2.728353
G1 X7.071297 Y2.729752
G1 X7.068997 Y2.731152
G1 X7.066697 Y2.732551
G1 X7.064397 Y2.733950
G1 X7.062098 Y2.735350
G1 X7.059798 Y2.736749
G1 X7.057498 Y2.738149
G1 X7.055198 Y2.739548
G1 X7.052898 Y2.740947
G1 X7.050598 Y2.742347
G1 X7.048298 Y2.743746
G1 X7.045998 Y2.745146
G1 X7.043698 Y2.746545
G1 X7.041398 Y2.747944
G1 X7.039098 Y2.749344
G1 X7.036798 Y2.750743
G1 X7.034498 Y2.752142
G1 X7.032198 Y2.753542
G1 X7.029899 Y2.754941
G1 X7.027599 Y2.756341
G1 X7.025299 Y2.757740
G1 X7.022999 Y2.759139
G1 X7.020699 Y2.760539
G1 X7.018399 Y2.761938
G1 X7.016099 Y2.763338
G1 X7.013799 Y2.764737
G1 X7.011499 Y2.766136
G1 X7.009199 Y2.767536
G1 X7.006899 Y2.768935
G1 X7.004599 Y2.770335
G1 X7.002299 Y2.771734
G1 X6.999999 Y2.773133
G1 X6.997699 Y2.774533
G1 X6.995400 Y2.775932
G1 X6.993100 Y2.777331
G1 X6.990800 Y2.778731
G1 X6.988500 Y2.780130
G1 X6.986200 Y2.781530
G1 X6.983900 Y2.782929
G1 X6.981600 Y2.784329
G1 X6.979300 Y2.785728
G1 X6.977000 Y2.787127
G1 X6.974700 Y2.788527
G1 X6.972400 Y2.789926
G1 X6.970100 Y2.791325
G1 X6.967800 Y2.792725
G1 X6.965501 Y2.794124
G1 X6.963201 Y2.795524
G1 X6.960901 Y2.796923
G1 X6.958601 Y2.798322
G1 X6.956301 Y2.799722
G1 X6.954001 Y2.801121
G1 X6.951701 Y2.802520
G1 X6.949401 Y2.803920
G1 X6.947101 Y2.805319
G1 X6.944801 Y2.806719
G1 X6.942501 Y2.808118
G1 X6.940201 Y2.809518
G1 X6.937902 Y2.810917
G1 X6.935602 Y2.812316
G1 X6.933302 Y2.813716
M3 S400

G0 X7.085097 Y2.660888
M3 S850
G1 X7.085097 Y2.660888
G1 X7.082797 Y2.662312
G1 X7.080497 Y2.663736
G1 X7.078197 Y2.665160
G1 X7.075897 Y2.666583
G1 X7.073597 Y2.668007
G1 X7.071297 Y2.669431
G1 X7.068997 Y2.670854
G1 X7.066697 Y2.672278
G1 X7.064397 Y2.673702
G1 X7.062098 Y2.675125
G1 X7.059798 Y2.676549
G1 X7.057498 Y2.677973
G1 X7.055198 Y2.679396
G1 X7.052898 Y2.680820
G1 X7.050598 Y2.682244
G1 X7.048298 Y2.683667
G1 X7.045998 Y2.685091
G1 X7.043698 Y2.686515
G1 X7.041398 Y2.687938
G1 X7.039098 Y2.689362
G1 X7.036798 Y2.690786
G1 X7.034498 Y2.692210
G1 X7.032198 Y2.693633
G1 X7.029899 Y2.695057
G1 X7.027599 Y2.696481
G1 X7.025299 Y2.697904
G1 X7.022999 Y2.699328
G1 X7.020699 Y2.700752
G1 X7.018399 Y2.702175
G1 X7.016099 Y2.703599
G1 X7.013799 Y2.705023
G1 X7.011499 Y2.706446
G1 X7.009199 Y2.707870
G1 X7.006899 Y2.709294
G1 X7.004599 Y2.710717
G1 X7.002299 Y2.712141
G1 X6.999999 Y2.713565
G1 X6.997699 Y2.714988
G1 X6.995400 Y2.716412
G1 X6.993100 Y2.717836
G1 X6.990800 Y2.719259
G1 X6.988500 Y2.720683
G1 X6.986200 Y2.722107
G1 X6.983900 Y2.723531
G1 X6.981600 Y2.724954
G1 X6.979300 Y2.726378
G1 X6.977000 Y2.727802
G1 X6.974700 Y2.729225
G1 X6.972400 Y2.730649
G1 X6.970100 Y2.732073
G1 X6.967800 Y2.733496
G1 X6.965501 Y2.734920
G1 X6.963201 Y2.736344
G1 X6.960901 Y2.737767
G1 X6.958601 Y2.739191
G1 X6.956301 Y2.740615
G1 X6.954001 Y2.742039
G1 X6.951701 Y2.743462
G1 X6.949401 Y2.744886
G1 X6.947101 Y2.746309
G1 X6.944801 Y2.747733
G1 X6.942501 Y2.749157
G1 X6.940201 Y2.750581
G1 X6.937902 Y2.752004
G1 X6.935602 Y2.753428
G1 X6.933302 Y2.754852
M3 S400

G0 X7.043525 Y2.784334
M3 S850
G1 X7.043525 Y2.784334
G1 X7.043559 Y2.782294
G1 X7.043592 Y2.780255
G1 X7.043626 Y2.778215
G1 X7.043659 Y2.776175
G1 X7.043693 Y2.774136
G1 X7.043726 Y2.772096
G1 X7.043760 Y2.770056
G1 X7.043793 Y2.768016
G1 X7.043826 Y2.765977
G1 X7.043860 Y2.763937
G1 X7.043894 Y2.761897
G1 X7.043927 Y2.759858
G1 X7.043960 Y2.757818
G1 X7.043994 Y2.755778
G1 X7.044027 Y2.753739
G1 X7.044061 Y2.751699
G1 X7.044094 Y2.749659
G1 X7.044128 Y2.747620
G1 X7.044161 Y2.745580
G1 X7.044195 Y2.743540
G1 X7.044228 Y2.741501
G1 X7.044262 Y2.739461
G1 X7.044295 Y2.737421
G1 X7.044329 Y2.735382
G1 X7.044362 Y2.733342
G1 X7.044395 Y2.731302
G1 X7.044429 Y2.729263
G1 X7.044462 Y2.727223
G1 X7.044496 Y2.725183
G1 X7.044529 Y2.723144
G1 X7.044563 Y2.721104
G1 X7.044596 Y2.719064
G1 X7.044630 Y2.717025
G1 X7.044663 Y2.714985
G1 X7.044697 Y2.712945
G1 X7.044730 Y2.710906
G1 X7.044764 Y2.708866
G1 X7.044797 Y2.706826
G1 X7.044831 Y2.704787
G1 X7.044864 Y2.702747
G1 X7.044898 Y2.700707
G1 X7.044931 Y2.698668
G1 X7.044964 Y2.696628
G1 X7.044998 Y2.694588
G1 X7.045031 Y2.692549
G1 X7.045065 Y2.690509
G1 X7.045098 Y2.688469
G1 X7.045132 Y2.686430
G1 X7.045165 Y2.684390
G1 X7.045199 Y2.682350
G1 X7.045232 Y2.680311
G1 X7.045266 Y2.678271
G1 X7.045299 Y2.676231
G1 X7.045333 Y2.674192
G1 X7.045366 Y2.672152
G1 X7.045400 Y2.670112
G1 X7.045433 Y2.668073
G1 X7.045466 Y2.666033
G1 X7.045500 Y2.663993
G1 X7.045534 Y2.661954
G1 X7.045567 Y2.659914
G1 X7.045600 Y2.657874
G1 X7.045634 Y2.655835
G1 X7.045667 Y2.653795
G1 X7.045701 Y2.651755
G1 X7.045734 Y2.649716
M3 S400

G0 X6.980898 Y2.673581
M3 S850
G1 X6.980898 Y2.673581
G1 X6.980833 Y2.675678
G1 X6.980768 Y2.677775
G1 X6.980704 Y2.679872
G1 X6.980639 Y2.681969
G1 X6.980574 Y2.684066
G1 X6.980509 Y2.686163
G1 X6.980445 Y2.688260
G1 X6.980380 Y2.690357
G1 X6.980315 Y2.692454
G1 X6.980250 Y2.694551
G1 X6.980185 Y2.696648
G1 X6.980121 Y2.698745
G1 X6.980056 Y2.700842
G1 X6.979991 Y2.702939
G1 X6.979926 Y2.705036
G1 X6.979862 Y2.707133
G1 X6.979797 Y2.709230
G1 X6.979732 Y2.711327
G1 X6.979667 Y2.713424
G1 X6.979602 Y2.715521
G1 X6.979537 Y2.717618
G1 X6.979473 Y2.719715
G1 X6.979408 Y2.721812
G1 X6.979343 Y2.723909
G1 X6.979279 Y2.726006
G1 X6.979214 Y2.728103
G1 X6.979149 Y2.730200
G1 X6.979084 Y2.732297
G1 X6.979019 Y2.734394
G1 X6.978954 Y2.736491
G1 X6.978890 Y2.738588
G1 X6.978825 Y2.740685
G1 X6.978760 Y2.742782
G1 X6.978696 Y2.744879
G1 X6.978631 Y2.746976
G1 X6.978566 Y2.749073
G1 X6.978501 Y2.751170
G1 X6.978436 Y2.753266
G1 X6.978371 Y2.755364
G1 X6.978307 Y2.757460
G1 X6.978242 Y2.759557
G1 X6.978177 Y2.761654
G1 X6.978112 Y2.763751
G1 X6.978048 Y2.765848
G1 X6.977983 Y2.767945
G1 X6.977918 Y2.770042
G1 X6.977853 Y2.772139
G1 X6.977788 Y2.774236
G1 X6.977724 Y2.776333
G1 X6.977659 Y2.778430
G1 X6.977594 Y2.780527
G1 X6.977529 Y2.782624
G1 X6.977464 Y2.784721
G1 X6.977400 Y2.786818
G1 X6.977335 Y2.788915
G1 X6.977270 Y2.791012
G1 X6.977205 Y2.793109
G1 X6.977141 Y2.795206
G1 X6.977076 Y2.797303
G1 X6.977011 Y2.799400
G1 X6.976946 Y2.801497
G1 X6.976881 Y2.803594
G1 X6.976816 Y2.805691
G1 X6.976752 Y2.807788
G1 X6.976687 Y2.809885
G1 X6.976622 Y2.811982
M3 S400

G0 X7.085097 Y2.571356
M3 S850
G1 X7.085097 Y2.571356
G1 X7.082797 Y2.572755
G1 X7.080497 Y2.574155
G1 X7.078197 Y2.575554
G1 X7.075897 Y2.576954
G1 X7.073597 Y2.578353
G1 X7.071297 Y2.579752
G1 X7.068997 Y2.581152
G1 X7.066697 Y2.582551
G1 X7.064397 Y2.583950
G1 X7.062098 Y2.585350
G1 X7.059798 Y2.586749
G1 X7.057498 Y2.588149
G1 X7.055198 Y2.589548
G1 X7.052898 Y2.590947
G1 X7.050598 Y2.592347
G1 X7.048298 Y2.593746
G1 X7.045998 Y2.595146
G1 X7.043698 Y2.596545
G1 X7.041398 Y2.597944
G1 X7.039098 Y2.599344
G1 X7.036798 Y2.600743
G1 X7.034498 Y2.602142
G1 X7.032198 Y2.603542
G1 X7.029899 Y2.604941
G1 X7.027599 Y2.606341
G1 X7.025299 Y2.607740
G1 X7.022999 Y2.609139
G1 X7.020699 Y2.610539
G1 X7.018399 Y2.611938
G1 X7.016099 Y2.613338
G1 X7.013799 Y2.614737
G1 X7.011499 Y2.616136
G1 X7.009199 Y2.617536
G1 X7.006899 Y2.618935
G1 X7.004599 Y2.620335
G1 X7.002299 Y2.621734
G1 X6.999999 Y2.623133
G1 X6.997699 Y2.624533
G1 X6.995400 Y2.625932
G1 X6.993100 Y2.627331
G1 X6.990800 Y2.628731
G1 X6.988500 Y2.630130
G1 X6.986200 Y2.631530
G1 X6.983900 Y2.632929
G1 X6.981600 Y2.634329
G1 X6.979300 Y2.635728
G1 X6.977000 Y2.637127
G1 X6.974700 Y2.638527
G1 X6.972400 Y2.639926
G1 X6.970100 Y2.641325
G1 X6.967800 Y2.642725
G1 X6.965501 Y2.644124
G1 X6.963201 Y2.645524
G1 X6.960901 Y2.646923
G1 X6.958601 Y2.648322
G1 X6.956301 Y2.649722
G1 X6.954001 Y2.651121
G1 X6.951701 Y2.652520
G1 X6.949401 Y2.653920
G1 X6.947101 Y2.655319
G1 X6.944801 Y2.656719
G1 X6.942501 Y2.658118
G1 X6.940201 Y2.659518
G1 X6.937902 Y2.660917
G1 X6.935602 Y2.662316
G1 X6.933302 Y2.663716
M3 S400

G0 X7.085097 Y2.510888
M3 S850
G1 X7.085097 Y2.510888
G1 X7.082797 Y2.512312
G1 X7.080497 Y2.513736
G1 X7.078197 Y2.515160
G1 X7.075897 Y2.516583
G1 X7.073597 Y2.518007
G1 X7.071297 Y2.519431
G1 X7.068997 Y2.520854
G1 X7.066697 Y2.522278
G1 X7.064397 Y2.523702
G1 X7.062098 Y2.525125
G1 X7.059798 Y2.526549
G1 X7.057498 Y2.527973
G1 X7.055198 Y2.529396
G1 X7.052898 Y2.530820
G1 X7.050598 Y2.532244
G1 X7.048298 Y2.533667
G1 X7.045998 Y2.535091
G1 X7.043698 Y2.536515
G1 X7.041398 Y2.537938
G1 X7.039098 Y2.539362
G1 X7.036798 Y2.540786
G1 X7.034498 Y2.542210
G1 X7.032198 Y2.543633
G1 X7.029899 Y2.545057
G1 X7.027599 Y2.546481
G1 X7.025299 Y2.547904
G1 X7.022999 Y2.549328
G1 X7.020699 Y2.550752
G1 X7.018399 Y2.552175
G1 X7.016099 Y2.553599
G1 X7.013799 Y2.555023
G1 X7.011499 Y2.556446
G1 X7.009199 Y2.557870
G1 X7.006899 Y2.559294
G1 X7.004599 Y2.560717
G1 X7.002299 Y2.562141
G1 X6.999999 Y2.563565
G1 X6.997699 Y2.564988
G1 X6.995400 Y2.566412
G1 X6.993100 Y2.567836
G1 X6.990800 Y2.569259
G1 X6.988500 Y2.570683
G1 X6.986200 Y2.572107
G1 X6.983900 Y2.573531
G1 X6.981600 Y2.574954
G1 X6.979300 Y2.576378
G1 X6.977000 Y2.577802
G1 X6.974700 Y2.579225
G1 X6.972400 Y2.580649
G1 X6.970100 Y2.582073
G1 X6.967800 Y2.583496
G1 X6.965501 Y2.584920
G1 X6.963201 Y2.586344
G1 X6.960901 Y2.587767
G1 X6.958601 Y2.589191
G1 X6.956301 Y2.590615
G1 X6.954001 Y2.592039
G1 X6.951701 Y2.593462
G1 X6.949401 Y2.594886
G1 X6.947101 Y2.596309
G1 X6.944801 Y2.597733
G1 X6.942501 Y2.599157
G1 X6.940201 Y2.600581
G1 X6.937902 Y2.602004
G1 X6.935602 Y2.603428
G1 X6.933302 Y2.604852
M3 S400

G0 X7.043525 Y2.634334
M3 S850
G1 X7.043525 Y2.634334
G1 X7.043559 Y2.632294
G1 X7.043592 Y2.630255
G1 X7.043626 Y2.628215
G1 X7.043659 Y2.626175
G1 X7.043693 Y2.624136
G1 X7.043726 Y2.622096
G1 X7.043760 Y2.620056
G1 X7.043793 Y2.618016
G1 X7.043826 Y2.615977
G1 X7.043860 Y2.613937
G1 X7.043894 Y2.611897
G1 X7.043927 Y2.609858
G1 X7.043960 Y2.607818
G1 X7.043994 Y2.605778
G1 X7.044027 Y2.603739
G1 X7.044061 Y2.601699
G1 X7.044094 Y2.599659
G1 X7.044128 Y2.597620
G1 X7.044161 Y2.595580
G1 X7.044195 Y2.593540
G1 X7.044228 Y2.591501
G1 X7.044262 Y2.589461
G1 X7.044295 Y2.587421
G1 X7.044329 Y2.585382
G1 X7.044362 Y2.583342
G1 X7.044395 Y2.581302
G1 X7.044429 Y2.579263
G1 X7.044462 Y2.577223
G1 X7.044496 Y2.575183
G1 X7.044529 Y2.573144
G1 X7.044563 Y2.571104
G1 X7.044596 Y2.569064
G1 X7.044630 Y2.567025
G1 X7.044663 Y2.564985
G1 X7.044697 Y2.562945
G1 X7.044730 Y2.560906
G1 X7.044764 Y2.558866
G1 X7.044797 Y2.556826
G1 X7.044831 Y2.554787
G1 X7.044864 Y2.552747
G1 X7.044898 Y2.550707
G1 X7.044931 Y2.548668
G1 X7.044964 Y2.546628
G1 X7.044998 Y2.544588
G1 X7.045031 Y2.542549
G1 X7.045065 Y2.540509
G1 X7.045098 Y2.538469
G1 X7.045132 Y2.536430
G1 X7.045165 Y2.534390
G1 X7.045199 Y2.532350
G1 X7.045232 Y2.530311
G1 X7.045266 Y2.528271
G1 X7.045299 Y2.526231
G1 X7.045333 Y2.524192
G1 X7.045366 Y2.522152
G1 X7.045400 Y2.520112
G1 X7.045433 Y2.518073
G1 X7.045466 Y2.516033
G1 X7.045500 Y2.513993
G1 X7.045534 Y2.511954
G1 X7.045567 Y2.509914
G1 X7.045600 Y2.507874
G1 X7.045634 Y2.505835
G1 X7.045667 Y2.503795
G1 X7.045701 Y2.501755
G1 X7.045734 Y2.499716
M3 S400

G0 X6.980898 Y2.523581
M3 S850
G1 X6.980898 Y2.523581
G1 X6.980833 Y2.525678
G1 X6.980768 Y2.527775
G1 X6.980704 Y2.529872
G1 X6.980639 Y2.531969
G1 X6.980574 Y2.534066
G1 X6.980509 Y2.536163
G1 X6.980445 Y2.538260
G1 X6.980380 Y2.540357
G1 X6.980315 Y2.542454
G1 X6.980250 Y2.544551
G1 X6.980185 Y2.546648
G1 X6.980121 Y2.548745
G1 X6.980056 Y2.550842
G1 X6.979991 Y2.552939
G1 X6.979926 Y2.555036
G1 X6.979862 Y2.557133
G1 X6.979797 Y2.559230
G1 X6.979732 Y2.561327
G1 X6.979667 Y2.563424
G1 X6.979602 Y2.565521
G1 X6.979537 Y2.567618
G1 X6.979473 Y2.569715
G1 X6.979408 Y2.571812
G1 X6.979343 Y2.573909
G1 X6.979279 Y2.576006
G1 X6.979214 Y2.578103
G1 X6.979149 Y2.580200
G1 X6.979084 Y2.582297
G1 X6.979019 Y2.584394
G1 X6.978954 Y2.586491
G1 X6.978890 Y2.588588
G1 X6.978825 Y2.590685
G1 X6.978760 Y2.592782
G1 X6.978696 Y2.594879
G1 X6.978631 Y2.596976
G1 X6.978566 Y2.599073
G1 X6.978501 Y2.601170
G1 X6.978436 Y2.603266
G1 X6.978371 Y2.605364
G1 X6.978307 Y2.607460
G1 X6.978242 Y2.609557
G1 X6.978177 Y2.611654
G1 X6.978112 Y2.613751
G1 X6.978048 Y2.615848
G1 X6.977983 Y2.617945
G1 X6.977918 Y2.620042
G1 X6.977853 Y2.622139
G1 X6.977788 Y2.624236
G1 X6.977724 Y2.626333
G1 X6.977659 Y2.628430
G1 X6.977594 Y2.630527
G1 X6.977529 Y2.632624
G1 X6.977464 Y2.634721
G1 X6.977400 Y2.636818
G1 X6.977335 Y2.638915
G1 X6.977270 Y2.641012
G1 X6.977205 Y2.643109
G1 X6.977141 Y2.645206
G1 X6.977076 Y2.647303
G1 X6.977011 Y2.649400
G1 X6.976946 Y2.651497
G1 X6.976881 Y2.653594
G1 X6.976816 Y2.655691
G1 X6.976752 Y2.657788
G1 X6.976687 Y2.659885
G1 X6.976622 Y2.661982
M3 S400

G0 X7.085097 Y2.421356
M3 S850
G1 X7.085097 Y2.421356
G1 X7.082797 Y2.422755
G1 X7.080497 Y2.424155
G1 X7.078197 Y2.425554
G1 X7.075897 Y2.426954
G1 X7.073597 Y2.428353
G1 X7.071297 Y2.429752
G1 X7.068997 Y2.431152
G1 X7.066697 Y2.432551
G1 X7.064397 Y2.433950
G1 X7.062098 Y2.435350
G1 X7.059798 Y2.436749
G1 X7.057498 Y2.438149
G1 X7.055198 Y2.439548
G1 X7.052898 Y2.440947
G1 X7.050598 Y2.442347
G1 X7.048298 Y2.443746
G1 X7.045998 Y2.445146
G1 X7.043698 Y2.446545
G1 X7.041398 Y2.447944
G1 X7.039098 Y2.449344
G1 X7.036798 Y2.450743
G1 X7.034498 Y2.452142
G1 X7.032198 Y2.453542
G1 X7.029899 Y2.454941
G1 X7.027599 Y2.456341
G1 X7.025299 Y2.457740
G1 X7.022999 Y2.459139
G1 X7.020699 Y2.460539
G1 X7.018399 Y2.461938
G1 X7.016099 Y2.463338
G1 X7.013799 Y2.464737
G1 X7.011499 Y2.466136
G1 X7.009199 Y2.467536
G1 X7.006899 Y2.468935
G1 X7.004599 Y2.470335
G1 X7.002299 Y2.471734
G1 X6.999999 Y2.473133
G1 X6.997699 Y2.474533
G1 X6.995400 Y2.475932
G1 X6.993100 Y2.477331
G1 X6.990800 Y2.478731
G1 X6.988500 Y2.480130
G1 X6.986200 Y2.481530
G1 X6.983900 Y2.482929
G1 X6.981600 Y2.484329
G1 X6.979300 Y2.485728
G1 X6.977000 Y2.487127
G1 X6.974700 Y2.488527
G1 X6.972400 Y2.489926
G1 X6.970100 Y2.491325
G1 X6.967800 Y2.492725
G1 X6.965501 Y2.494124
G1 X6.963201 Y2.495524
G1 X6.960901 Y2.496923
G1 X6.958601 Y2.498322
G1 X6.956301 Y2.499722
G1 X6.954001 Y2.501121
G1 X6.951701 Y2.502520
G1 X6.949401 Y2.503920
G1 X6.947101 Y2.505319
G1 X6.944801 Y2.506719
G1 X6.942501 Y2.508118
G1 X6.940201 Y2.509518
G1 X6.937902 Y2.510917
G1 X6.935602 Y2.512316
G1 X6.933302 Y2.513716
M3 S400

G0 X7.085097 Y2.360888
M3 S850
G1 X7.085097 Y2.360888
G1 X7.082797 Y2.362312
G1 X7.080497 Y2.363736
G1 X7.078197 Y2.365160
G1 X7.075897 Y2.366583
G1 X7.073597 Y2.368007
G1 X7.071297 Y2.369431
G1 X7.068997 Y2.370854
G1 X7.066697 Y2.372278
G1 X7.064397 Y2.373702
G1 X7.062098 Y2.375125
G1 X7.059798 Y2.376549
G1 X7.057498 Y2.377973
G1 X7.055198 Y2.379396
G1 X7.052898 Y2.380820
G1 X7.050598 Y2.382244
G1 X7.048298 Y2.383667
G1 X7.045998 Y2.385091
G1 X7.043698 Y2.386515
G1 X7.041398 Y2.387938
G1 X7.039098 Y2.389362
G1 X7.036798 Y2.390786
G1 X7.034498 Y2.392210
G1 X7.032198 Y2.393633
G1 X7.029899 Y2.395057
G1 X7.027599 Y2.396481
G1 X7.025299 Y2.397904
G1 X7.022999 Y2.399328
G1 X7.020699 Y2.400752
G1 X7.018399 Y2.402175
G1 X7.016099 Y2.403599
G1 X7.013799 Y2.405023
G1 X7.011499 Y2.406446
G1 X7.009199 Y2.407870
G1 X7.006899 Y2.409294
G1 X7.004599 Y2.410717
G1 X7.002299 Y2.412141
G1 X6.999999 Y2.413565
G1 X6.997699 Y2.414988
G1 X6.995400 Y2.416412
G1 X6.993100 Y2.417836
G1 X6.990800 Y2.419259
G1 X6.988500 Y2.420683
G1 X6.986200 Y2.422107
G1 X6.983900 Y2.423531
G1 X6.981600 Y2.424954
G1 X6.979300 Y2.426378
G1 X6.977000 Y2.427802
G1 X6.974700 Y2.429225
G1 X6.972400 Y2.430649
G1 X6.970100 Y2.432073
G1 X6.967800 Y2.433496
G1 X6.965501 Y2.434920
G1 X6.963201 Y2.436344
G1 X6.960901 Y2.437767
G1 X6.958601 Y2.439191
G1 X6.956301 Y2.440615
G1 X6.954001 Y2.442039
G1 X6.951701 Y2.443462
G1 X6.949401 Y2.444886
G1 X6.947101 Y2.446309
G1 X6.944801 Y2.447733
G1 X6.942501 Y2.449157
G1 X6.940201 Y2.450581
G1 X6.937902 Y2.452004
G1 X6.935602 Y2.453428
G1 X6.933302 Y2.454852
M3 S400

G0 X7.043525 Y2.484334
M3 S850
G1 X7.043525 Y2.484334
G1 X7.043559 Y2.482294
G1 X7.043592 Y2.480255
G1 X7.043626 Y2.478215
G1 X7.043659 Y2.476175
G1 X7.043693 Y2.474136
G1 X7.043726 Y2.472096
G1 X7.043760 Y2.470056
G1 X7.043793 Y2.468016
G1 X7.043826 Y2.465977
G1 X7.043860 Y2.463937
G1 X7.043894 Y2.461897
G1 X7.043927 Y2.459858
G1 X7.043960 Y2.457818
G1 X7.043994 Y2.455778
G1 X7.044027 Y2.453739
G1 X7.044061 Y2.451699
G1 X7.044094 Y2.449659
G1 X7.044128 Y2.447620
G1 X7.044161 Y2.445580
G1 X7.044195 Y2.443540
G1 X7.044228 Y2.441501
G1 X7.044262 Y2.439461
G1 X7.044295 Y2.437421
G1 X7.044329 Y2.435382
G1 X7.044362 Y2.433342
G1 X7.044395 Y2.431302
G1 X7.044429 Y2.429263
G1 X7.044462 Y2.427223
G1 X7.044496 Y2.425183
G1 X7.044529 Y2.423144
G1 X7.044563 Y2.421104
G1 X7.044596 Y2.419064
G1 X7.044630 Y2.417025
G1 X7.044663 Y2.414985
G1 X7.044697 Y2.412945
G1 X7.044730 Y2.410906
G1 X7.044764 Y2.408866
G1 X7.044797 Y2.406826
G1 X7.044831 Y2.404787
G1 X7.044864 Y2.402747
G1 X7.044898 Y2.400707
G1 X7.044931 Y2.398668
G1 X7.044964 Y2.396628
G1 X7.044998 Y2.394588
G1 X7.045031 Y2.392549
G1 X7.045065 Y2.390509
G1 X7.045098 Y2.388469
G1 X7.045132 Y2.386430
G1 X7.045165 Y2.384390
G1 X7.045199 Y2.382350
G1 X7.045232 Y2.380311
G1 X7.045266 Y2.378271
G1 X7.045299 Y2.376231
G1 X7.045333 Y2.374192
G1 X7.045366 Y2.372152
G1 X7.045400 Y2.370112
G1 X7.045433 Y2.368073
G1 X7.045466 Y2.366033
G1 X7.045500 Y2.363993
G1 X7.045534 Y2.361954
G1 X7.045567 Y2.359914
G1 X7.045600 Y2.357874
G1 X7.045634 Y2.355835
G1 X7.045667 Y2.353795
G1 X7.045701 Y2.351755
G1 X7.045734 Y2.349716
M3 S400

G0 X6.980898 Y2.373581
M3 S850
G1 X6.980898 Y2.373581
G1 X6.980833 Y2.375678
G1 X6.980768 Y2.377775
G1 X6.980704 Y2.379872
G1 X6.980639 Y2.381969
G1 X6.980574 Y2.384066
G1 X6.980509 Y2.386163
G1 X6.980445 Y2.388260
G1 X6.980380 Y2.390357
G1 X6.980315 Y2.392454
G1 X6.980250 Y2.394551
